!!!!SEGMENT: pl-wnifc--2227-n--004_mikuli-karol--grand-duo-op-26-finale-allegro-appassionato.krn
!!!cenid: 18xx:3884
!!!COM: Mikuli, Karol
!!!COM-rismID: pe106110
!!!CDT: 1819-1897
!!!CNT:
!!!OPR: Grand Duo op. 26
!!!OTL: Finale. Allegro appassionato
!!!OMV: 004
!!!PDT:
!!!AGN:
!!!SMS-siglum: PL-Wnifc
!!!SMS-shelfmark: 2227/n
!!!SMS-shelfwork: 001-004 M
!!!SMS-variant:
!!!SMS-altvar:
!!!NIFC-rismSourceID: 300605262
!!!NIFC-rismChildID: 300605262
!!!NIFC-islandoraID: nifc:211849
!!!URL-pdf-islandora: https://repozytorium.nifc.pl/islandora/object/nifc%3A211849/datastream/PDF/view
!!!URL-scan: https://polish.musicsources.pl/pl/lokalizacje/galeria/druki-muzyczne/16806 @EN{Scan on Polish Music Sources Website} @PL{Skany w portalu Dziedzictwo Muzyki Polskiej w otwartym dostępie}
!!!IIIF:
!!!ONB-nifc: UWAGA: części Duetu: 1. Andante con espressione, 2. Allegro giojoso, 3. Lento quasi Fantasia, 4. Finale. Allegro appassionato
!!!AIN: 1 piano 1 violn
!!!key: A
**kern	**fing	**dynam	**kern	**fing	**dynam	**kern	**dynam
*part2	*	*	*part2	*	*part2	*part1	*part1
*staff2	*	*	*staff2	*	*	*staff1	*
*I"Piano	*	*	*I"Piano	*	*	*I"Violine	*
*I'P-no	*	*	*I'P-no	*	*	*I'Vn	*
*ICklav	*	*	*	*	*	*ICstr	*
*Ipiano	*	*	*	*	*	*Ivioln	*
*clefF4	*	*	*clefG2	*	*	*clefG2	*
*k[f#c#g#]	*	*	*k[f#c#g#]	*	*	*k[f#c#g#]	*
*A:	*	*	*A:	*	*	*A:	*
*M2/2	*	*	*M2/2	*	*	*M2/2	*
*met(c|)	*	*	*met(c|)	*	*	*met(c|)	*
=1	=1	=1	=1	=1	=1	=1	=1
!	!	!	!LO:TX:a:t=Allegro appassionato.	!	!	!LO:TX:a:t=Allegro appassionato.	!
4FF# 4FFF#\	.	.	4f# 4A 4F#/	.	f	1r	.
(8A\L	.	.	(4ccc# 4cc#\	.	mf	.	.
8c#\J	.	.	.	.	.	.	.
8B\L	.	.	4ee#X 4e#X/	.	.	.	.
8d\	.	.	.	.	.	.	.
8A\	.	.	4ff# 4f#\	.	.	.	.
8c#\J	.	.	.	.	.	.	.
=2	=2	=2	=2	=2	=2	=2	=2
8B\L	.	.	4ee#X 4e#X/	.	<	1r	.
8d\	.	.	.	.	.	.	.
8A\	.	.	4ff# 4f#\	.	.	.	.
8c#\J	.	.	.	.	.	.	.
8G#\L	.	.	4gg# 4g#\	.	.	.	.
8B\	.	.	.	.	.	.	.
8F#\	.	.	4aa 4a\	.	[[	.	.
8A\J)	.	.	.	.	.	.	.
=3	=3	=3	=3	=3	=3	=3	=3
*	*	*	*^	*	*	*	*
*ped	*	*	*	*	*	*	*	*
(8EEn/L	.	.	2bb 2b\)	2ryy	.	.	1r	.
8E/	.	.	.	.	.	.	.	.
8G#/	.	.	.	.	.	.	.	.
*Xped	*	*	*	*	*	*	*	*
8B/J)	.	.	.	.	.	.	.	.
*ped	*	*	*	*	*	*	*	*
(8AA\L	.	.	(8dddL 8dd\	2aa/	.	>	.	.
8A\	.	.	8ccc# 8cc#\)	.	.	.	.	.
8c#\	.	.	(8ccc# 8cc#\	.	.	.	.	.
8e\J)	.	.	8bbJ 8b\)	.	.	.	.	.
*Xped	*	*	*	*	*	*	*	*
*	*	*	*v	*v	*	*	*	*
=4	=4	=4	=4	=4	=4	=4	=4
*ped	*	*	*	*	*	*	*
(8E\L	.	.	4bb 4gg# 4b\	.	]	1r	.
8e\	.	.	.	.	.	.	.
8g#\	.	.	4r	.	.	.	.
8e\J	.	.	.	.	.	.	.
8B/L	.	.	2r	.	.	.	.
8G#/	.	.	.	.	.	.	.
8E/	.	.	.	.	.	.	.
8EE/J)	.	.	.	.	.	.	.
=5	=5	=5	=5	=5	=5	=5	=5
*Xped	*	*	*	*	*	*	*
8AA/	.	.	4r	.	.	1r	.
8r	.	.	.	.	.	.	.
(8c#\L	.	.	(4eee 4ee\	.	.	.	.
8e\J	.	.	.	.	.	.	.
8d\L	.	.	4gg# 4g#\	.	.	.	.
8fn\	.	.	.	.	.	.	.
8c#\	.	.	4aa 4a\	.	.	.	.
8e\J	.	.	.	.	.	.	.
!!LO:LB:g=original
=6	=6	=6	=6	=6	=6	=6	=6
8d\L	.	.	4gg# 4g#\	.	<	1r	.
8fn\	.	.	.	.	.	.	.
8c#\	.	.	4aa 4a\	.	.	.	.
8e\J	.	.	.	.	.	.	.
8B\L	.	.	4bb 4b\	.	.	.	.
8d\	.	.	.	.	.	.	.
8A\	.	.	4ccc# 4cc#\)	.	[	.	.
8c#\J)	.	.	.	.	.	.	.
=7	=7	=7	=7	=7	=7	=7	=7
*	*	*	*^	*	*	*	*
*ped	*	*	*	*	*	*	*	*
(8GG#\L	.	.	2ddd#X 2bb#X 2gg# 2dd#X\	2ryy	.	.	1r	.
8G#\	.	.	.	.	.	.	.	.
8B#X\	.	.	.	.	.	.	.	.
*Xped	*	*	*	*	*	*	*	*
8d#X\J)	.	.	.	.	.	.	.	.
*ped	*	*	*	*	*	*	*	*
(8C#\L	.	.	(8fff#L 8ff#\	2ccc#/	.	>	.	.
8c#\	.	.	8eee 8ee\)	.	.	.	.	.
8e\	.	.	(8eee 8ee\	.	.	.	.	.
8g#\J)	.	.	8ddd#J 8dd#\)	.	.	.	.	.
*Xped	*	*	*	*	*	*	*	*
*	*	*	*v	*v	*	*	*	*
=8	=8	=8	=8	=8	=8	=8	=8
*ped	*	*	*	*	*	*	*
(8G#\L	.	.	4ddd#X 4bb#X 4dd#X\	.	]	1r	.
8d#X\	.	.	.	.	.	.	.
8b#X\	.	.	4r	.	.	.	.
8d#\J	.	.	.	.	.	.	.
8b#\L	.	.	2r	.	.	.	.
8d#\	.	.	.	.	.	.	.
8G#\	.	.	.	.	.	.	.
8d#\J	.	.	.	.	.	.	.
*Xped	*	*	*	*	*	*	*
=9	=9	=9	=9	=9	=9	=9	=9
*^	*	*	*	*	*	*	*
*ped	*	*	*	*	*	*	*	*
8G#\L	2.G#/	.	.	4r	.	.	1r	.
8dn\	.	.	.	.	.	.	.	.
8bn\	.	.	.	(2eee#X 2ee#X^/	.	<	.	.
8d\J	.	.	.	.	.	.	.	.
8b\L	.	.	.	.	.	.	.	.
8d\	.	.	.	.	.	.	.	.
8F#\	4F#/	.	.	4fff# 4ff#/	.	[[	.	.
8a\J	.	.	.	.	.	.	.	.
*Xped	*	*	*	*	*	*	*	*
=10	=10	=10	=10	=10	=10	=10	=10	=10
*ped	*	*	*	*	*	*	*	*
8E#X\L	8E#/	.	.	4aaa 4aa/	.	>	1r	.
8B#X\	8ryy	.	.	.	.	.	.	.
8c#\	4ryy	.	.	4ggg# 4gg#/	.	.	.	.
8g#\J	.	.	.	.	.	.	.	.
8c#\L	2ryy	.	.	4ccc# 4cc#/)	.	.	.	.
8g#\	.	.	.	.	.	.	.	.
8c#\	.	.	.	4ccc# 4cc#/	.	]	.	.
8g#\J)	.	.	.	.	.	.	.	.
*Xped	*	*	*	*	*	*	*	*
!!LO:LB:g=original	!	!	!	!	!	!	!!LO:LB:g=original	!
=11	=11	=11	=11	=11	=11	=11	=11	=11
*ped	*	*	*	*	*	*	*	*
(8En\L	2.En/	.	.	4r	.	.	1r	.
8A#X\	.	.	.	.	.	.	.	.
8gn\	.	.	.	(2ccc# 2cc#^\	.	<	.	.
8A#\J	.	.	.	.	.	.	.	.
8g\L	.	.	.	.	.	.	.	.
8A#\	.	.	.	.	.	.	.	.
8D\	4D/	.	.	4ddd 4dd\	.	[[	.	.
8f#\J	.	.	.	.	.	.	.	.
*Xped	*	*	*	*	*	*	*	*
=12	=12	=12	=12	=12	=12	=12	=12	=12
8C#\L	8C#/	.	.	4fff# 4ff#\	.	>	1r	.
8F#\	8ryy	.	.	.	.	.	.	.
8Gn\	4ryy	.	.	4eee 4ee\	.	.	.	.
8e\J	.	.	.	.	.	.	.	.
8G\L	2ryy	.	.	4aa#X 4a#X\)	.	.	.	.
8e\	.	.	.	.	.	.	.	.
8G\	.	.	.	4aa# 4a#\	.	]	.	.
8e\J)	.	.	.	.	.	.	.	.
=13	=13	=13	=13	=13	=13	=13	=13	=13
(8D\L	2ryy	.	.	4bb 4b\	.	.	1r	.
8F#\	.	.	.	.	.	.	.	.
8d\	.	.	.	4r	.	.	.	.
8F#\J)	.	.	.	.	.	.	.	.
*ped	*	*	*	*	*	*	*	*
(8D\L	2D\	.	.	2bb#X 2aa 2ff# 2b#X\	.	.	.	.
8F#\	.	.	.	.	.	.	.	.
8d\	.	.	.	.	.	.	.	.
8A\J)	.	.	.	.	.	.	.	.
=14	=14	=14	=14	=14	=14	=14	=14	=14
*	*	*	*	*^	*	*	*	*
*ped	*	*	*	*	*	*	*	*	*
!	!	!	!	!LO:TX:t=cre-scen-do:dur=4eq:ext=ud:problem:text with extention lines	!	!	!	!	!
(8C#\L	2C#\	.	.	2ccc# 2cc#\	1aa 1ff#	.	<	1r	.
8F#\	.	.	.	.	.	.	.	.	.
8c#\	.	.	.	.	.	.	.	.	.
8A\J)	.	.	.	.	.	.	.	.	.
*ped	*	*	*	*	*	*	*	*	*
(8BB#X\L	2BB#\	.	.	2ddd#X 2dd#X\	.	.	.	.	.
8F#\	.	.	.	.	.	.	.	.	.
8d#X\	.	.	.	.	.	.	.	.	.
8A\J)	.	.	.	.	.	.	.	.	.
=15	=15	=15	=15	=15	=15	=15	=15	=15	=15
*ped	*	*	*	*	*	*	*	*	*
(8BBn\L	2BBn\	.	.	2eee#X 2ee#X\	[1ccc#	.	.	1r	.
8C#\	.	.	.	.	.	.	.	.	.
8c#\	.	.	.	.	.	.	.	.	.
8G#\J)	.	.	.	.	.	.	.	.	.
*ped	*	*	*	*	*	*	*	*	*
(8AA\L	2AA\	.	.	[2fff# [2ff#\	.	.	.	.	.
8C#\	.	.	.	.	.	.	.	.	.
8c#\	.	.	.	.	.	.	.	.	.
8F#\J	.	.	.	.	.	.	.	.	.
*	*	*	*	*v	*v	*	*	*	*
=16	=16	=16	=16	=16	=16	=16	=16	=16
8c#\L	2ryy	.	.	2fff#] 2ccc#] 2ff#\]	.	[	1r	.
8F#\	.	.	.	.	.	.	.	.
8c#\	.	.	.	.	.	.	.	.
8F#\J)	.	.	.	.	.	.	.	.
*Xped	*	*	*	*	*	*	*	*
(8BB\L	2BB\	.	.	2gg# 2ff# 2dd 2g#\	.	.	.	.
8F#\	.	.	.	.	.	.	.	.
8d\	.	.	.	.	.	.	.	.
8G#\J)	.	.	.	.	.	.	.	.
*Xped	*	*	*	*	*	*	*	*
*v	*v	*	*	*	*	*	*	*
!!LO:LB:g=original
=17	=17	=17	=17	=17	=17	=17	=17
*ped	*	*	*	*	*	*	*
(8CC#/L	.	.	1aa 1ff# 1cc# 1a	.	f	1r	.
8C#/	1	.	.	.	.	.	.
8F#/	3	.	.	.	.	.	.
8c#/J	1	.	.	.	.	.	.
8A/L	2	.	.	.	.	.	.
8F#/	3	.	.	.	.	.	.
*Xped	*	*	*	*	*	*	*
8C#/	4	.	.	.	.	.	.
*ped	*	*	*	*	*	*	*
8CC#/J	.	.	.	.	.	.	.
=18	=18	=18	=18	=18	=18	=18	=18
*	*	*	*^	*	*	*	*
8C#\L	1	.	2cc# 2a/	1ee#X 1e#X	.	>	1r	.
8G#\	3	.	.	.	.	.	.	.
8c#\	1	.	.	.	.	.	.	.
8B\J	2	.	.	.	.	.	.	.
8G#/L	3	.	2b 2g#/	.	.	.	.	.
8C#/	1	.	.	.	.	.	.	.
8CC#/	.	.	.	.	.	.	.	.
8C#/J)	.	.	.	.	.	.	.	.
*	*	*	*v	*v	*	*	*	*
=19	=19	=19	=19	=19	=19	=19	=19
*Xped	*	*	*	*	*	*	*
4FF#/	.	.	8ff#L 8a 8f#/	.	] p	4r	.
.	.	.	(8c#/	.	.	.	.
4r	.	.	8cc# 8a/	.	.	(4cc#\	p
.	.	.	8c#/J	.	.	.	.
2r	.	.	8ddL 8b/	.	.	4e#X/	.
.	.	.	8c#/	.	.	.	.
.	.	.	8cc# 8a/	.	.	4f#/)	.
.	.	.	8c#/J	.	.	.	.
=20	=20	=20	=20	=20	=20	=20	=20
2r	.	.	8ddL 8b/	.	.	(4e#X/	.
.	.	.	8c#/	.	.	.	.
.	.	.	8cc# 8a/	.	.	4f#/	.
.	.	.	8c#/J	.	.	.	.
4F# 4FF#/	.	.	8bL 8g#/	.	.	4g#/	.
.	.	.	8c#/	.	.	.	.
4r	.	.	8a 8f#/	.	.	4a/)	.
.	.	.	8c#/J)	.	.	.	.
=21	=21	=21	=21	=21	=21	=21	=21
4E 4EE/	.	.	(8bL 8a/	.	.	2b\	.
.	.	.	8e/	.	.	.	.
4r	.	.	8b 8g#/	.	.	.	.
.	.	.	8e/J	.	.	.	.
4AA/	.	.	8cc#L 8b/	.	.	((8dd\L	.
.	.	.	8e/	.	.	8cc#\)	.
4r	.	.	8cc# 8a/	.	.	(8cc#\	.
.	.	.	8e/J)	.	.	8b\J))	.
=22	=22	=22	=22	=22	=22	=22	=22
*	*	*	*^	*	*	*	*
4EE/	.	.	(8bL 8g#/	2b 2g#/	.	.	4b\	.
.	.	.	8e/	.	.	.	.	.
4r	.	.	8ee/	.	.	.	4r	.
.	.	.	8e/J)	.	.	.	.	.
2r	.	.	(8ddL 8f#/	2ryy	.	.	2r	.
.	.	.	8cc# 8e/)	.	.	.	.	.
.	.	.	(8cc# 8e/	.	.	.	.	.
.	.	.	8bJ 8d/)	.	.	.	.	.
*	*	*	*v	*v	*	*	*	*
!!LO:PB:g=original
=23	=23	=23	=23	=23	=23	=23	=23
4AA/	.	.	(8aL 8c#/	.	.	4r	.
.	.	.	8e/	.	.	.	.
4r	.	.	8ee 8cc#/	.	.	(4ee\	.
.	.	.	8e/J	.	.	.	.
2r	.	.	8ffnL 8dd\	.	.	4g#/	.
.	.	.	8e\	.	.	.	.
.	.	.	8ee 8cc#\	.	.	4a/)	.
.	.	.	8e\J	.	.	.	.
=24	=24	=24	=24	=24	=24	=24	=24
2r	.	.	8ffnL 8dd\	.	.	(4g#/	.
.	.	.	8e\	.	.	.	.
.	.	.	8ee 8cc#\	.	.	4a/	.
.	.	.	8e\J	.	.	.	.
4AA/	.	.	8ddL 8b/	.	.	4b\	.
.	.	.	8e/	.	.	.	.
4r	.	.	8cc# 8a/	.	.	4cc#\)	.
.	.	.	8e/J)	.	.	.	.
=25	=25	=25	=25	=25	=25	=25	=25
4GG#/	.	.	(8dd#XL 8cc#\	.	.	2dd#X\	.
.	.	.	8g#\	.	.	.	.
4r	.	.	8dd# 8b#X\	.	.	.	.
.	.	.	8g#\J	.	.	.	.
4C# 4CC#/	.	.	8eeL 8dd#\	.	.	((8ff#\L	.
.	.	.	8g#\	.	.	8ee\)	.
4r	.	.	8ee 8cc#\	.	.	(8ee\	.
.	.	.	8g#\J)	.	.	8dd#\J))	.
=26	=26	=26	=26	=26	=26	=26	=26
*	*	*	*^	*	*	*	*
4GG# 4GGG#/	.	.	(8dd#XL 8b#X\	2dd# 2b#\	.	.	4dd#X\	.
.	.	.	8g#\	.	.	.	.	.
4r	.	.	8gg#\	.	.	.	4r	.
.	.	.	8g#\J)	.	.	.	.	.
2r	.	.	(8ff#L 8a\	2ryy	.	.	2r	.
.	.	.	8ee 8g#\)	.	.	.	.	.
.	.	.	(8ee 8g#\	.	.	.	.	.
.	.	.	8dd#J 8f#\)	.	.	.	.	.
*	*	*	*v	*v	*	*	*	*
=27	=27	=27	=27	=27	=27	=27	=27
*ped	*	*	*	*	*	*	*
2.G# 2.GG#/	.	.	8r	.	.	4r	.
.	.	.	(8e#X/L	.	.	.	.
.	.	.	8ee#X 8ddn 8bn/	.	<	(2ee#X\	<
.	.	.	8ee#/J	.	.	.	.
.	.	.	8eee#XL 8dddn 8bb\	.	.	.	.
.	.	.	8ee#\	.	.	.	.
4F# 4FF#/	.	.	8fff# 8ddd 8bb\	.	.	4ff#\)	[[
*Xped	*	*	*	*	*	*	*
.	.	.	8ff#\J	.	[[	.	.
!!LO:LB:g=original
=28	=28	=28	=28	=28	=28	=28	=28
!	!	!	!	!	!	!	!LO:DY:a
*ped	*	*	*	*	*	*	*
4E#X 4EE#X/	.	.	8aaaL 8ddd\	.	>	(4aa\	>
.	.	.	8aa\	.	.	.	.
4r	.	.	8ggg# 8ddd\)	.	.	4gg#\	.
.	.	.	8gg#\J	.	.	.	.
2r	.	.	(8ccc#L 8gg#\	.	.	4cc#\)	.
.	.	.	8cc#\)	.	.	.	.
.	.	.	(8cc# 8g#\	.	]	4cc#`\	]
.	.	.	8c#\J)	.	.	.	.
*Xped	*	*	*	*	*	*	*
=29	=29	=29	=29	=29	=29	=29	=29
*ped	*	*	*	*	*	*	*
2.En 2.EEn/	.	.	8r	.	.	4r	.
.	.	.	(8A#X/L	.	.	.	.
.	.	.	8a#X 8gn 8c#/	.	<	(2ccc#\	<
.	.	.	8a#/J	.	.	.	.
.	.	.	8aa#XL 8ggn 8cc#\	.	.	.	.
.	.	.	8a#\	.	.	.	.
4D 4DD/	.	.	8bb 8ff#\	.	.	4ddd\)	[[
.	.	.	8b\J	.	[[	.	.
*Xped	*	*	*	*	*	*	*
=30	=30	=30	=30	=30	=30	=30	=30
*ped	*	*	*	*	*	*	*
2C# 2CC#/	.	.	8fff#L 8aa#X\	.	>	(4fff#\	>
.	.	.	8ggn\	.	.	.	.
.	.	.	8eee 8aa#\)	.	.	4eee\	.
.	.	.	8gg\J	.	.	.	.
2E 2EE/	.	.	(8ccc#L 8ff#\	.	.	4aa#X\)	.
.	.	.	8cc#\)	.	.	.	.
.	.	.	(8ff# 8cc#\	.	.	4aa#`\	]
.	.	.	8f#\J)	.	]]	.	.
*Xped	*	*	*	*	*	*	*
=31	=31	=31	=31	=31	=31	=31	=31
*ped	*	*	*	*	*	*	*
1D 1DD	.	.	(8f#\L	.	.	2bb\	.
.	.	.	8b\	.	.	.	.
.	.	.	8b\	.	.	.	.
*Xped	*	*	*	*	*	*	*
.	.	.	8bbJ 8ff#\)	.	.	.	.
*ped	*	*	*	*	*	*	*
.	.	.	(8B#X\L	.	<	2bb#X\	<
.	.	.	8b#X 8f#\	.	.	.	.
.	.	.	8b#\	.	.	.	.
.	.	.	8bb#XJ 8ff#\)	.	.	.	[
=32	=32	=32	=32	=32	=32	=32	=32
*ped	*	*	*	*	*	*	*
2C# 2CC#/	.	.	(8c#\L	.	.	2ccc#\	.
.	.	.	8cc# 8a 8f#\	.	.	.	.
.	.	.	8cc#\	.	.	.	.
.	.	.	8ccc#J 8aa 8ff#\)	.	.	.	.
*Xped	*	*	*	*	*	*	*
2BB#X 2BBB#X/	.	.	(8d#X\L	.	.	2ddd#X\	.
.	.	.	8dd#X 8a 8f#\	.	.	.	.
*ped	*	*	*	*	*	*	*
.	.	.	8dd#\	.	.	.	.
.	.	.	8ddd#XJ 8aa 8ff#\)	.	.	.	.
*Xped	*	*	*	*	*	*	*
!!LO:LB:g=original
=33	=33	=33	=33	=33	=33	=33	=33
*ped	*	*	*	*	*	*	*
2BBn 2BBBn/	.	.	(8e#X\L	.	.	2eee#	.
.	.	.	8ee#X 8cc# 8g#\	.	.	.	.
.	.	.	8ee#\	.	.	.	.
.	.	.	8eee#XJ 8ccc# 8gg#\)	.	.	.	.
*Xped	*	*	*	*	*	*	*
[2AA [2AAA/	.	.	(8f#\L	.	.	(2fff#	.
*ped	*	*	*	*	*	*	*
.	.	.	8ff# 8cc#\	.	.	.	.
.	.	.	8ff#\	.	.	.	.
.	.	.	8fff#J 8ccc#\	.	.	.	.
=34	=34	=34	=34	=34	=34	=34	=34
2AA] 2AAA/]	.	.	8fff#L 8ccc#\	.	.	2fff#)	.
*Xped	*	*	*	*	*	*	*
.	.	.	8ff#\	.	.	.	.
.	.	.	8ff# 8cc#\	.	.	.	.
.	.	.	8f#\J)	.	.	.	.
*ped	*	*	*	*	*	*	*
2BB 2BBB/	.	.	(8g#\L	.	.	2gg#	.
.	.	.	8gg# 8ff# 8dd\	.	.	.	.
.	.	.	8gg#\	.	.	.	.
.	.	.	8ggg#J 8fff# 8ddd\)	.	[[	.	.
*Xped	*	*	*	*	*	*	*
=35	=35	=35	=35	=35	=35	=35	=35
*ped	*	*	*	*	*	*	*
[1C# [1CC#	.	.	(8aa\L	.	f	1aa	.
.	.	.	8aaa 8fff# 8ccc#\	.	.	.	.
.	.	.	8aaa 8fff# 8ccc#\	.	.	.	.
.	.	.	8aa\J)	.	.	.	.
.	.	.	(8cc#\L	.	.	.	.
.	.	.	8ccc# 8aa 8ff#\	.	.	.	.
.	.	.	8ccc# 8aa 8ff#\	.	.	.	.
.	.	.	8cc#\J)	.	.	.	.
*Xped	*	*	*	*	*	*	*
=36	=36	=36	=36	=36	=36	=36	=36
*ped	*	*	*	*	*	*	*
2C#] 2CC#/]	.	.	(8a\L	.	.	1ee# 1cc#	.
*Xped	*	*	*	*	*	*	*
.	.	.	8aa 8ee#X 8cc#\	.	.	.	.
.	.	.	8aa 8ee# 8cc#\	.	.	.	.
.	.	.	8a\J)	.	.	.	.
*ped	*	*	*	*	*	*	*
2CC#/	.	.	(8e#X/L	.	>	.	.
.	.	.	8ee#X 8b 8g#/	.	.	.	.
.	.	.	8ee# 8b 8g#/	.	.	.	.
.	.	.	8e#/J)	.	]]	.	.
*Xped	*	*	*	*	*	*	*
=37	=37	=37	=37	=37	=37	=37	=37
4FF# 4FFF#/	.	.	4ff# 4a 4f#\	.	.	4ff# 4a	.
4r	.	.	(4f#/	.	p	4r	.
4r	.	.	4ff#\	.	.	2r	.
(4F#\	.	.	8een\L	.	.	.	.
.	.	.	8dd\J	.	.	.	.
=38	=38	=38	=38	=38	=38	=38	=38
4f#\	1	.	8cc#\L	.	.	1r	.
.	.	.	8a\	.	.	.	.
8e\L	2	.	8b\	.	.	.	.
8d\J	1	.	8b#X\J	.	.	.	.
8c#\L	2	.	[2cc#\)	.	.	.	.
8A\	4	.	.	.	.	.	.
8B\	.	.	.	.	.	.	.
8B#X\J	.	.	.	.	.	.	.
!!LO:LB:g=original
=39	=39	=39	=39	=39	=39	=39	=39
[2c#\)	1	.	(8cc#/L]	.	.	2r	.
.	.	.	8bn/	.	.	.	.
.	.	.	8a/	.	.	.	.
.	.	.	8g#/J)	.	.	.	.
(8c#\L]	.	.	(8a/L	.	.	4r	.
8Bn\	.	.	8g#/	.	.	.	.
8A\	.	.	8f#/	.	.	8r	.
8G#\J)	4	.	8e#X/J)	.	.	16r	.
.	.	.	.	.	.	16ff# 16f#\	.
=40	=40	=40	=40	=40	=40	=40	=40
*	*	*	*^	*	*	*	*
!	!	!	!	!	!	!	!LO:TX:a:t=ten.	!
(8A\L	1	.	(4f#/	4ryy	.	<	2.ff# 2.f#\	.
8G#\	.	.	.	.	.	.	.	.
8F#\	.	.	4g#/	(2c#\	.	.	.	.
8E#X\J)	.	.	.	.	.	.	.	.
(8F#\L	.	.	4a 4f#/	.	.	.	.	.
8En\	1	.	.	.	.	.	.	.
8D\	.	.	4a#X 4f#/	4en\)	.	.	4r	.
8C#\J	.	.	.	.	.	.	.	.
*	*	*	*v	*v	*	*	*	*
=41	=41	=41	=41	=41	=41	=41	=41
4BB/)	.	.	4b 4f# 4d/)	.	[	1r	.
4r	.	.	(4b\	.	p	.	.
4r	.	.	4bb\	.	.	.	.
(4B\	.	p	8aan\L	.	.	.	.
.	.	.	8ggn\J	.	.	.	.
=42	=42	=42	=42	=42	=42	=42	=42
4b\	.	.	8ff#/L	.	.	1r	.
.	.	.	8dd/	.	.	.	.
8a\L	.	.	8ee/	.	.	.	.
8gn\J	1	.	8ee#X/J	.	.	.	.
8f#\L	2	.	[2ff#/)	.	.	.	.
8d\	4	.	.	.	.	.	.
8e\	.	.	.	.	.	.	.
8e#X\J	.	.	.	.	.	.	.
=43	=43	=43	=43	=43	=43	=43	=43
[2f#\)	1	.	(8ff#/L]	.	.	2r	.
.	.	.	8een/	.	.	.	.
.	.	.	8dd/	.	.	.	.
.	.	.	8cc#/J)	.	.	.	.
(8f#\L]	.	.	(8dd/L	.	.	4r	.
8en\	.	.	8cc#/	.	.	.	.
8d\	.	.	8b/	.	.	8r	.
8c#\J)	4	.	8a#X/J)	.	.	16r	.
.	.	.	.	.	.	16bb 16b\	.
=44	=44	=44	=44	=44	=44	=44	=44
*	*	*	*^	*	*	*	*
!	!	!	!	!	!	!	!LO:TX:a:t=ten.	!
(8d\L	1	.	(4b/	2.b\	.	.	2.bb 2.b\	.
8c#\	.	.	.	.	.	.	.	.
8B\	.	.	4cc#/	.	.	.	.	.
8A#X\J	.	.	.	.	.	.	.	.
8B\L	1	.	4dd/	.	.	.	.	.
8An\	.	.	.	.	.	.	.	.
8G#\	.	.	4dd#X/	4an\	.	.	4r	.
8F#\J)	.	.	.	.	.	.	.	.
!!LO:LB:g=original
=45	=45	=45	=45	=45	=45	=45	=45	=45
4E\	.	.	4ee/)	4g#\	.	.	4r	.
4r	.	.	4r	4ryy	.	.	(4ee\	.
[2B 2Dn\	.	.	(4ffn/	2a\	.	>	4ffn\	.
.	.	.	4ddn/	.	.	.	8b/L	.
.	.	.	.	.	.	.	8a/J)	.
=46	=46	=46	=46	=46	=46	=46	=46	=46
*^	*	*	*	*	*	*	*	*
4B] 4E\	2ryy	.	.	4b/)	4g#\	.	.	8g#`/L	.
.	.	.	.	.	.	.	.	(8g#/	.
4r	.	.	.	(2ee 2e/	4ryy	.	]	8a/	.
.	.	.	.	.	.	.	.	8b/J	.
(4A/	2AA\	.	.	.	2ryy	.	.	4ccn\)	.
8B/L	.	.	.	4dd#X 4fn/	.	.	.	(8b/L	.
8cn/J	.	.	.	.	.	.	.	8a/J	.
*v	*v	*	*	*	*	*	*	*	*
=47	=47	=47	=47	=47	=47	=47	=47	=47
4B 4E\)	.	.	4ee 4e/)	2ryy	.	.	4g#/)	.
4r	.	.	4r	.	.	.	(4ee\	.
2B 2Dn\	.	.	(4ffn/	2a\	.	.	4ffn\	.
.	.	.	4ddn/	.	.	.	8b/L	.
.	.	.	.	.	.	.	8a/J)	.
=48	=48	=48	=48	=48	=48	=48	=48	=48
(2E\	.	.	4.ccn 4.e/	4r	.	.	8g#`/L	.
.	.	.	.	.	.	.	(8g#/	.
.	.	.	.	4g#\	.	.	8a/	.
.	.	.	8b 8d/	.	.	.	8b/J	.
4AA/)	.	.	4a 4cn/)	2ryy	.	.	4ccn\)	.
4r	.	.	4r	.	.	.	(8b/L	.
.	.	.	.	.	.	.	8a/J)	.
=49	=49	=49	=49	=49	=49	=49	=49	=49
(1D 1DD	.	.	4r	4ryy	.	.	2a/	.
.	.	.	(4a/	2.a\	.	p <	.	.
.	.	.	4ffn^/	.	.	.	(4.aa\	<
!	!	!	!	!	!	!	!LO:TX:t=cre-scen-do:dur=8eq:ext=ud:problem:text with extention lines	!
.	.	.	8ee/L	.	.	.	.	.
.	.	.	8dd/J	.	.	.	8bb\)	.
*	*	*	*v	*v	*	*	*	*
=50	=50	=50	=50	=50	=50	=50	=50
4AA 4AAA/)	.	.	8ccn/L	.	[ >	2.cccn\	.
.	.	.	8g#/	.	.	.	.
4r	.	.	8a/	.	.	.	.
.	.	.	8b/J	.	.	.	.
2r	.	.	8ccn\L	.	]	.	.
.	.	.	8cc\	.	.	.	.
.	.	.	8cccn\	.	.	4r	.
.	.	.	8cc\J)	.	.	.	.
!!LO:PB:g=original
=51	=51	=51	=51	=51	=51	=51	=51
*	*	*	*^	*	*	*	*
1Fn 1FFn	.	.	4r	4ryy	.	.	(2..cccn\	.
.	.	.	(4cc#/	2.cc#\	.	mf	.	.
.	.	.	4aa-X^/	.	.	.	.	.
.	.	.	8ggn/L	.	.	.	.	.
.	.	.	8ffn/J	.	.	.	8ddd\)	.
*	*	*	*v	*v	*	*	*	*
=52	=52	=52	=52	=52	=52	=52	=52
4Cn 4CCn/	.	.	8ee\L	.	.	2.eee\	.
.	.	.	8b\	.	.	.	.
4r	.	.	8ccn\	.	.	.	.
.	.	.	8dd\J	.	.	.	.
2r	.	.	8ee\L	.	.	.	.
.	.	.	8ee\	.	.	.	.
.	.	.	8eee\	.	.	4r	[
.	.	.	8ee\J)	.	.	.	.
=53	=53	=53	=53	=53	=53	=53	=53
*	*	*	*^	*	*	*	*
!	!	!	!	!	!	!	!LO:TX:t=sempre:dur=16q:ext=ud:problem:text with extention lines	!
[2.cn [2.Cn\	.	.	4r	4ryy	.	.	2.ee\	.
.	.	.	(4e/	[2.e\	.	f	.	.
.	.	.	4ee/	.	.	.	.	.
8c]L 8C\]	.	.	8dd#X/L	.	.	.	(8ff#\L	.
8BJ 8BB\	.	.	8ddn/J)	.	.	.	8gg#\J)	.
=54	=54	=54	=54	=54	=54	=54	=54	=54
2A 2AA\	.	.	(4ccn/	1e]	.	.	2aa\	.
.	.	.	8dd/L	.	.	.	.	.
.	.	.	8cc/J	.	.	.	.	.
2Gn 2GGn/	.	.	4b/	.	.	.	[2bb\	.
.	.	.	8cc/L	.	.	.	.	.
.	.	.	8b/J	.	.	.	.	.
*	*	*	*v	*v	*	*	*	*
=55	=55	=55	=55	=55	=55	=55	=55
4Fn 4FFn/	.	.	4dd 4a\	.	.	4bb\]	.
4E 4EE/	.	.	4ccn 4gn/	.	.	(4cccn\	.
4D 4DD/	.	.	4b 4fn/	.	.	4ddd\	.
4D#X 4DD#X/	.	.	4a 4f#X/	.	.	4ccc\	.
=56	=56	=56	=56	=56	=56	=56	=56
*^	*	*	*^	*	*	*	*
8EE\L	4E/	.	.	4g#X/)	4g#\	.	f	8bb\)	.
8FF#X\	.	.	.	.	.	.	.	8r	.
8GG#\	4ryy	.	.	8G#/L	4ryy	.	.	(4e/	f
8AA\J	.	.	.	8A/J	.	.	.	.	.
8BB\L	2ryy	.	.	8B/L	2ryy	.	.	4ee^\	.
8Cn\	.	.	.	8cn/	.	.	.	.	.
8D\	.	.	.	8d/	.	.	.	8dd\L	.
8D#X\J	.	.	.	8d#X/J	.	.	.	8ccn\J)	.
*v	*v	*	*	*	*	*	*	*	*
*	*	*	*v	*v	*	*	*	*
!!LO:LB:g=original	!	!	!	!	!	!	!
=57	=57	=57	=57	=57	=57	=57	=57
8E\L	.	.	8e/L	.	.	8b`/L	.
8BB\	.	.	8B/	.	.	(8g#/	.
8Cn\	.	.	8cn/	.	.	8a/	.
8GG#\J	.	.	8G#/J	.	.	8b/J	.
8AA\L	.	.	8A/L	.	.	4ccn\)	.
8EE\	.	.	8E/	.	.	.	.
8FFn\	.	.	8Fn/	.	.	(8b/L	.
8DD#X\J	.	.	8D#X/J	.	.	8a/J	.
=58	=58	=58	=58	=58	=58	=58	=58
8EE\L	.	.	8E/	.	.	4ee\)	.
8F#X 8FF#X\	.	.	8r	.	.	.	.
8G# 8GG#\	.	.	(4ee 4e/	.	ff	4r	.
8AJ 8AA\	.	.	.	.	.	.	.
8BL 8BB\	.	.	4eee 4ee\	.	.	2r	.
8cn 8Cn\	.	.	.	.	.	.	.
8d 8D\	.	.	8dddL 8dd\	.	.	.	.
8d#XJ 8D#X\	.	.	8cccnJ 8ccn\	.	.	.	.
=59	=59	=59	=59	=59	=59	=59	=59
8eL 8E\	.	.	8bbL 8b\	.	.	1r	.
8B 8BB\	.	.	8gg# 8g#\	.	.	.	.
8cn 8Cn\	.	.	8aa 8a\	.	.	.	.
8G#J 8GG#\	.	.	8bbJ 8b\	.	.	.	.
8AL 8AA/	.	.	4cccn 4ccn\	.	.	.	.
8E 8EE/	.	.	.	.	.	.	.
8Fn 8FFn/	.	.	8bbL 8b\	.	.	.	.
8D#XJ 8DD#X/	.	.	8aaJ 8a\	.	.	.	.
=60	=60	=60	=60	=60	=60	=60	=60
*^	*	*	*^	*	*	*	*
*	*^	*	*	*	*	*	*	*	*
2E/	4EE\	[1E	.	.	4gg# 4g#\)	2ryy	.	.	1r	.
.	4ryy	.	.	.	([4gn\	.	.	.	.	.
2A#X/	2ryy	.	.	.	4ggn/	2cc# 2g\]	.	.	.	.
.	.	.	.	.	8ff#/L	.	4	.	.	.
.	.	.	.	.	8ee/J)	.	5	.	.	.
*	*v	*v	*	*	*	*	*	*	*	*
=61	=61	=61	=61	=61	=61	=61	=61	=61	=61
2B/	1E]	.	.	(8dd#X/L	2f#\	4	.	1r	.
.	.	.	.	8a#X/	.	2	.	.	.
.	.	.	.	8b/	.	2	.	.	.
.	.	.	.	8cc#/J	.	.	.	.	.
2G#X/	.	.	.	4ddn/	2fn\	.	.	.	.
.	.	.	.	8ee/L	.	.	.	.	.
.	.	.	.	8dd/J)	.	.	.	.	.
!!LO:LB:g=original
=62	=62	=62	=62	=62	=62	=62	=62	=62	=62
2A/	2AA\	.	.	(8cc#/L	1e	.	.	1r	.
.	.	.	.	8g#/	.	.	.	.	.
.	.	.	.	8a/	.	.	.	.	.
.	.	.	.	8b/J	.	.	.	.	.
2Gn/	2BB-X\	.	.	4ccn/	.	.	.	.	.
.	.	.	.	8dd/L	.	.	.	.	.
.	.	.	.	8cc/J	.	.	.	.	.
=63	=63	=63	=63	=63	=63	=63	=63	=63	=63
2G#X/	2BBn\	.	.	4b/	2fn\	.	.	1r	.
.	.	.	.	8ccn/L	.	.	.	.	.
.	.	.	.	8b/J	.	.	.	.	.
4A/	4Cn\	.	.	2a/	4e\	.	.	.	.
4Fn/	4FFn\	.	.	.	4d#X 4A\	.	.	.	.
*v	*v	*	*	*	*	*	*	*	*
=64	=64	=64	=64	=64	=64	=64	=64	=64
8E 8EE/	.	.	8g#/)	8e 8B\	.	.	1r	.
!	!	!	!LO:TX:a:t=marcato	!	!	!	!	!
8r	.	.	8g#/L	8ryy	.	f	.	.
4r	.	.	8a/	4ryy	.	.	.	.
.	.	.	8a#X/J	.	.	.	.	.
4r	.	.	2b^/	4ryy	.	.	.	.
4D 4DD/	.	.	.	4an 4fn 4B\	.	.	.	.
=65	=65	=65	=65	=65	=65	=65	=65	=65
4E 4EE/	.	.	4b/	4g# 4e 4B\	.	.	8r	.
!	!	!	!	!	!	!	!LO:TX:a:t=Sostenuto.	!
.	.	.	.	.	.	.	(8d/L	f
!	!	!	!LO:TX:b:t=Sosten.	!	!	!	!	!
4r	.	.	4r	4ryy	.	.	8d#X/	.
.	.	.	.	.	.	.	8e/J	.
2r	.	.	2r	2ryy	.	.	[2fn/)	.
*	*	*	*v	*v	*	*	*	*
=66	=66	=66	=66	=66	=66	=66	=66
2r	.	.	2r	.	.	1f_	.
2E-X 2EE-X/	.	.	2cn 2A/	.	p	.	.
=67	=67	=67	=67	=67	=67	=67	=67
!	!	!	!LO:TX:b:t=legato	!	!	!	!
2D 2DD/	.	.	2d 2B-X/	.	.	1f_	p
2Cn 2CCn/	.	.	[2a [2e-X [2A/	.	.	.	.
=68	=68	=68	=68	=68	=68	=68	=68
1BBn 1BBBn	.	.	1a] 1d#X] 1A]	.	.	4f/]	.
.	.	.	.	.	.	(4f#X/	.
.	.	.	.	.	.	4b/	.
.	.	.	.	.	.	4a/	.
=69	=69	=69	=69	=69	=69	=69	=69
2E 2EE/	.	.	2g# 2e 2B/	.	.	4g#/)	.
.	.	.	.	.	.	(2ee^\	.
2F# 2FF#/	.	.	2a 2dn 2A/	.	.	.	.
.	.	.	.	.	.	4dd\)	>
=70	=70	=70	=70	=70	=70	=70	=70
.	.	.	.	.	.	(16qqcc#/LL	.
.	.	.	.	.	.	16qqdd/)	.
.	.	.	.	.	.	16qqee/JJ	.
[1E [1GG#	.	.	[1e [1B	.	.	[1dd	.
=71	=71	=71	=71	=71	=71	=71	=71
1E] 1GG#;]	.	.	1e] 1B;]	.	.	1dd;]	]
!!LO:LB:g=original
=72	=72	=72	=72	=72	=72	=72	=72
!	!	!	!	!	!	!LO:TX:b:t=cantabile	!
2AA 2AAA\	.	.	(6c# 6E/	.	.	1cc#	p
.	.	.	6A/	.	.	.	.
.	.	.	6c#/)	.	.	.	.
2GG# 2GGG#\	.	.	(6E#X/	.	.	.	.
.	.	.	6B/	.	.	.	.
.	.	.	6c#/)	.	.	.	.
=73	=73	=73	=73	=73	=73	=73	=73
2GGn 2GGGn\	.	.	(6Fn/	.	.	(2dd\	.
.	.	.	6B/	.	.	.	.
.	.	.	6d/)	.	.	.	.
2GG#X 2GGG#X\	.	.	(6En/	.	.	2ee\)	.
.	.	.	6B/	.	.	.	.
.	.	.	6d/)	.	.	.	.
=74	=74	=74	=74	=74	=74	=74	=74
1AA 1AAA	.	.	(6E/	.	.	(2cc#\	.
.	.	.	6A/	.	.	.	.
.	.	.	6B/	.	.	.	.
.	.	.	6c#/	.	.	2ee\	.
.	.	.	6cc#\	.	.	.	.
.	.	.	6b\	.	.	.	.
=75	=75	=75	=75	=75	=75	=75	=75
*	*	*	*^	*	*	*	*
2FF# 2FFF#/	.	.	6a/	2ryy	.	.	2aa\)	.
.	.	.	6g#/	.	.	.	.	.
.	.	.	6f#/	.	.	.	.	.
.	.	.	.	16qqe#X/LL	.	.	.	.
.	.	.	.	16qqf#/	.	.	.	.
.	.	.	.	16qqg#/JJ	.	.	.	.
2GG# 2GGG#/	.	.	6f#\	2f#/	.	.	2bb\	.
.	.	.	6en\	.	.	.	.	.
.	.	.	6d\	.	.	.	.	.
*	*	*	*v	*v	*	*	*	*
=76	=76	=76	=76	=76	=76	=76	=76
*ped	*	*	*	*	*	*	*
6C# 6CC#\	.	.	4e#X 4c#/)	.	.	1ccc#	.
6CC#\	.	.	.	.	.	.	.
.	.	.	4r	.	.	.	.
6GG#\	.	.	.	.	.	.	.
4E#X\	.	.	(6G#/	.	.	.	.
.	.	.	6c#/	.	.	.	.
4r	.	.	.	.	.	.	.
*Xped	*	*	*	*	*	*	*
.	.	.	6e#/)	.	.	.	.
=77	=77	=77	=77	=77	=77	=77	=77
2F# 2FF#/	.	.	(6g#/	.	.	(3bb\	.
.	.	.	6c#/	.	.	.	.
.	.	.	6a/	.	.	6aa\	.
2D 2DD/	.	.	6a#X/	.	.	3gg#\	.
.	.	.	6b/	.	.	.	.
.	.	.	6b#X/	.	.	6ff#\)	.
!!LO:PB:g=original
=78	=78	=78	=78	=78	=78	=78	=78
1E 1EE	.	.	6cc#\	.	.	(2.ee\	.
.	.	.	6an/	.	.	.	.
.	.	.	6e/	.	.	.	.
.	.	.	8e#X/L	.	.	.	.
.	.	.	8f#/	.	.	.	.
.	.	.	8f##X/	.	.	4dd\	.
.	.	.	8g#/J	.	.	.	.
=79	=79	=79	=79	=79	=79	=79	=79
*ped	*	*	*	*	*	*	*
4AA/	.	.	6a/	.	.	2.cc#\)	.
.	.	.	6ee\	.	.	.	.
4r	.	.	.	.	.	.	.
.	.	.	6cc#\	.	.	.	.
2r	.	.	6a/	.	.	.	.
.	.	.	6e/	.	.	.	.
.	.	.	.	.	.	4r	.
.	.	.	6c#/)	.	.	.	.
*Xped	*	*	*	*	*	*	*
=80	=80	=80	=80	=80	=80	=80	=80
1GG#	.	.	6r	.	.	(1ee	.
.	.	.	(6B/	.	.	.	.
.	.	.	6e/	.	.	.	.
.	.	.	6e/	.	.	.	.
.	.	.	6B/	.	.	.	.
.	.	.	6e/)	.	.	.	.
=81	=81	=81	=81	=81	=81	=81	=81
2AA/	.	.	6r	.	.	2ff#\)	.
.	.	.	(6c#/	.	.	.	.
.	.	.	6f#/)	.	.	.	.
2BB/	.	.	6r	.	.	2gg#\	<
.	.	.	(6d/	.	.	.	.
.	.	.	6g#/)	.	.	.	.
=82	=82	=82	=82	=82	=82	=82	=82
1C#	.	.	6r	.	.	(2ee\	.
.	.	.	(6e/	.	.	.	.
.	.	.	6a/	.	.	.	.
.	.	.	6a/	.	.	2eee\)	.
.	.	.	6A/	.	.	.	.
.	.	.	6a/)	.	.	.	.
=83	=83	=83	=83	=83	=83	=83	=83
1D#Xt:	.	.	6r	.	.	2ddd#X\	[
.	.	.	(6f#/	.	.	.	.
.	.	.	6a/	.	.	.	.
.	.	.	6a/	.	.	2ccc#\	.
.	.	.	6B/	.	.	.	.
.	.	.	6a/)	.	.	.	.
(16qqC#/LL	.	.	.	.	.	.	.
16qqD#/JJ)	.	.	.	.	.	.	.
!!LO:LB:g=original
=84	=84	=84	=84	=84	=84	=84	=84
2E\	.	.	(6g#/	.	.	2bb\	>
.	.	.	6B/	.	.	.	.
.	.	.	[6e/)	.	.	.	.
2GG#/	.	.	(6e/]	.	.	3aa\	.
.	.	.	[6B#X/	.	.	.	.
.	.	.	[6e 6B#/])	.	.	6gg#\	]]
=85	=85	=85	=85	=85	=85	=85	=85
*	*	*	*^	*	*	*	*
2AA/	.	.	(6e/]	2c#\	.	.	(3gg#\	>
.	.	.	6e#X/	.	.	.	.	.
.	.	.	6f#/	.	.	.	6ff#\	.
2BB/	.	.	6cn\	2d#X/	.	.	6aa\	.
.	.	.	6Bn\	.	.	.	6gg#\	.
.	.	.	6A\	.	.	.	6ff#\	.
*	*	*	*v	*v	*	*	*	*
=86	=86	=86	=86	=86	=86	=86	=86
*^	*	*	*	*	*	*	*
6EE/	2EE\	.	.	4en 4G#/)	.	.	2ee\)	]p
6BB/	.	.	.	.	.	.	.	.
.	.	.	.	4r	.	.	.	.
6E/	.	.	.	.	.	.	.	.
6F#/	2ryy	.	.	2r	.	.	6dd#X\	]
6F##X/	.	.	.	.	.	.	6ddn\	.
6G#/	.	.	.	.	.	.	6b\	.
*v	*v	*	*	*	*	*	*	*
=87	=87	=87	=87	=87	=87	=87	=87
!	!	!	!LO:TX:t=P:problem:łuk przechodzący z lewej ręki	!	!	!	!
1r	.	.	(6B/	.	.	(2a/	.
.	.	.	6dn/	.	.	.	.
.	.	.	6f#/	.	.	.	.
.	.	.	6e/	.	.	4g#/	.
.	.	.	6b\	.	.	.	.
.	.	.	.	.	.	4f#/)	.
.	.	.	6b#X\)	.	.	.	.
=88	=88	=88	=88	=88	=88	=88	=88
!	!	!	!LO:TX:b:t=cantabile	!	!	!	!
*ped	*	*	*	*	*	*	*
6AA/	.	.	(1ccc#: 1cc#:	.	p	(2e/	p
6E\	.	.	.	.	.	.	.
*Xped	*	*	*	*	*	*	*
6c#\	.	.	.	.	.	.	.
*ped	*	*	*	*	*	*	*
8GG#\L	.	.	.	.	.	[2fn/)	.
8Fn\	.	.	.	.	.	.	.
8B\J	.	.	.	.	.	.	.
8ryy	.	.	.	.	.	.	.
*Xped	*	*	*	*	*	*	*
=89	=89	=89	=89	=89	=89	=89	=89
*ped	*	*	*	*	*	*	*
6GGn/	.	.	2ddd 2dd\	.	.	(2f/]	.
6Fn\	.	.	.	.	.	.	.
*Xped	*	*	*	*	*	*	*
6B\	.	.	.	.	.	.	.
*ped	*	*	*	*	*	*	*
6GG#X/	.	.	2eee 2ee\	.	.	2e/)	.
6E\	.	.	.	.	.	.	.
6B\	.	.	.	.	.	.	.
*Xped	*	*	*	*	*	*	*
!!LO:LB:g=original
=90	=90	=90	=90	=90	=90	=90	=90
*ped	*	*	*	*	*	*	*
(6AA/	.	<	2ccc# 2cc#/	.	.	(2ee\	.
6E\	.	.	.	.	.	.	.
6A\	.	.	.	.	.	.	.
6c#\	.	.	2eee 2ee/	.	.	3ee\	.
6cc#\	.	.	.	.	.	.	.
6b\	.	[	.	.	.	6dd\	.
*Xped	*	*	*	*	*	*	*
=91	=91	=91	=91	=91	=91	=91	=91
6a\	.	>	2aaa 2aa/	.	.	4cc#\)	.
6g#\	.	.	.	.	.	.	.
.	.	.	.	.	.	4r	.
6f#\	.	.	.	.	.	.	.
*	*	*	*8va	*	*	*	*
6e\	.	.	2bbb 2bb/	.	.	(3g#/	.
6d#X\	.	.	.	.	.	.	.
6dn\	.	]	.	.	.	6f#/	.
=92	=92	=92	=92	=92	=92	=92	=92
6c#\)	.	.	1cccc# 1ccc#)	.	.	([1e#X)	.
*ped	*	*	*	*	*	*	*
(6CC#/	.	.	.	.	.	.	.
6GG#/	.	.	.	.	.	.	.
6E#X\	.	.	.	.	.	.	.
6G#\	.	.	.	.	.	.	.
6c#\)	.	.	.	.	.	.	.
*Xped	*	*	*	*	*	*	*
=93	=93	=93	=93	=93	=93	=93	=93
*^	*	*	*	*	*	*	*
*ped	*	*	*	*	*	*	*	*
6F#/	2ryy	.	.	(3bbb 3bb\	.	.	3e#/]	.
*clefG2	*	*	*	*	*	*	*	*
(6c#/	.	.	.	.	.	.	.	.
6a/	.	.	.	6aaa 6aa\	.	.	6f#/)	.
*Xped	*	*	*	*	*	*	*	*
6a#X/	2d\	.	.	3ggg# 3gg#\	.	.	(3een\	.
6b/	.	.	.	.	.	.	.	.
6b#X/	.	.	.	6fff# 6ff#\)	.	.	6dd\	.
=94	=94	=94	=94	=94	=94	=94	=94	=94
*ped	*	*	*	*	*	*	*	*
6cc#/	1e	.	.	(2..eee 2..ee/	.	.	6cc#\)	.
6dd/	.	.	.	.	.	.	(6e/	.
6cc#/	.	.	.	.	.	.	6ee\)	.
6b#X/	.	.	.	.	.	.	(3ee\	.
6cc#/	.	.	.	.	.	.	.	.
6bn/	.	.	.	.	.	.	6g#/	.
.	.	.	.	8dddn 8ddn/	.	.	.	.
*v	*v	*	*	*	*	*	*	*
=95	=95	=95	=95	=95	=95	=95	=95
6a/	.	.	2ccc# 2cc#/)	.	.	4a/)	.
6cc#\	.	.	.	.	.	.	.
.	.	.	.	.	.	4r	.
6a/	.	.	.	.	.	.	.
*	*	*	*X8va	*	*	*	*
6g#/	.	.	2r	.	.	2r	.
6e/	.	.	.	.	.	.	.
6c#/)	.	.	.	.	.	.	.
*Xped	*	*	*	*	*	*	*
*clefF4	*	*	*	*	*	*	*
!!LO:LB:g=original
=96	=96	=96	=96	=96	=96	=96	=96
*^	*	*	*	*	*	*	*
!LO:TX:b:t=legato	!	!	!	!	!	!	!	!
(8D#X\L	2D#\	.	.	4r	.	.	1r	.
8A\	.	.	.	.	.	.	.	.
8f#\	.	.	.	2b^\	.	p	.	.
8B\J)	.	.	.	.	.	.	.	.
(8E\L	2E\	.	.	.	.	.	.	.
8A\	.	.	.	.	.	.	.	.
8e\	.	.	.	4b\	.	.	.	.
8B\J)	.	.	.	.	.	.	.	.
=97	=97	=97	=97	=97	=97	=97	=97	=97
.	.	.	.	(16qqb/LL	.	.	.	.
.	.	.	.	16qqdd#X/JJ)	.	.	.	.
(8F#\L	2F#\	.	.	(4cc#\	.	.	4r	.
8B\	.	.	.	.	.	.	.	.
8d#X\	.	.	.	4b\)	.	.	2b\	.
8B\J)	.	.	.	.	.	.	.	.
(8E\L	2E\	.	.	4r	.	.	.	.
8A\	.	.	.	.	.	.	.	.
8e\	.	.	.	(4b\	.	.	(4b\	.
8B\J)	.	.	.	.	.	.	.	.
=98	=98	=98	=98	=98	=98	=98	=98	=98
.	.	.	.	.	.	.	16qqb/LL	.
.	.	.	.	.	.	.	16qqdd#X/JJ	.
*ped	*	*	*	*	*	*	*	*
(8D#X\L	2D#\	.	.	[2aa\	.	.	4cc#\	.
8A\	.	.	.	.	.	.	.	.
8f#\	.	.	.	.	.	.	4b\)	.
*Xped	*	*	*	*	*	*	*	*
8B\J)	.	.	.	.	.	.	.	.
!	!	!	!	!LO:N:vis=8	!	!	!	!
*ped	*	*	*	*	*	*	*	*
(8E\L	2E\	.	.	18aa\LL]	.	.	4r	.
.	.	.	.	18gg#\	.	>	.	.
.	.	.	.	18bb\	.	.	.	.
8A\	.	.	.	.	.	.	.	.
.	.	.	.	18aa\	.	.	.	.
.	.	.	.	18gg#\	.	.	.	.
8e\	.	.	.	.	.	.	(4b\	.
.	.	.	.	18ff#\	.	.	.	.
.	.	.	.	18ee\	.	.	.	.
8B\J)	.	.	.	.	.	.	.	.
.	.	.	.	18dd#X\	.	.	.	.
.	.	.	.	18cc#\JJ	.	]]	.	.
*Xped	*	*	*	*	*	*	*	*
=99	=99	=99	=99	=99	=99	=99	=99	=99
*ped	*	*	*	*	*	*	*	*
(8F#\L	2F#\	.	.	2b\)	.	.	2aa\	.
8A\	.	.	.	.	.	.	.	.
8d#X\	.	.	.	.	.	.	.	.
8B\J)	.	.	.	.	.	.	.	.
!	!	!	!	!	!	!	!LO:N:vis=8	!
(8E\L	2E\	.	.	2r	.	.	18aa\LL)	.
*Xped	*	*	*	*	*	*	*	*
.	.	.	.	.	.	.	(18gg#\	.
.	.	.	.	.	.	.	18bb\	.
*ped	*	*	*	*	*	*	*	*
8A\	.	.	.	.	.	.	.	.
.	.	.	.	.	.	.	18aa\	.
.	.	.	.	.	.	.	18gg#\	.
8e\	.	.	.	.	.	.	.	.
.	.	.	.	.	.	.	18ff#\	.
.	.	.	.	.	.	.	18ee\	.
8B\J)	.	.	.	.	.	.	.	.
.	.	.	.	.	.	.	18dd#X\	.
.	.	.	.	.	.	.	18cc#\JJ	.
!!LO:PB:g=original
*Xped	*	*	*	*	*	*	*	*
=100	=100	=100	=100	=100	=100	=100	=100	=100
*ped	*	*	*	*	*	*	*	*
(8D#X\L	2D#\	.	.	4r	.	.	2b\)	.
8A\	.	.	.	.	.	.	.	.
8f#\	.	.	.	2b^\	.	p	.	.
8B\J)	.	.	.	.	.	.	.	.
*Xped	*	*	*	*	*	*	*	*
(8E\L	2E\	.	.	.	.	.	2r	.
*ped	*	*	*	*	*	*	*	*
8A\	.	.	.	.	.	.	.	.
8e\	.	.	.	4b\	.	.	.	.
8B\J)	.	.	.	.	.	.	.	.
*Xped	*	*	*	*	*	*	*	*
=101	=101	=101	=101	=101	=101	=101	=101	=101
.	.	.	.	(16qqb/LL	.	.	.	.
.	.	.	.	16qqdd#X/JJ)	.	.	.	.
*ped	*	*	*	*	*	*	*	*
(8F#\L	2F#\	.	.	(4cc#\	.	.	4r	.
8B\	.	.	.	.	.	.	.	.
8d#X\	.	.	.	4b\)	.	.	2b\	.
8B\J)	.	.	.	.	.	.	.	.
*Xped	*	*	*	*	*	*	*	*
(8E\L	2E\	.	.	4r	.	.	.	.
*ped	*	*	*	*	*	*	*	*
8A\	.	.	.	.	.	.	.	.
8e\	.	.	.	(4b\	.	.	(4b\	.
8B\J)	.	.	.	.	.	.	.	.
*Xped	*	*	*	*	*	*	*	*
=102	=102	=102	=102	=102	=102	=102	=102	=102
.	.	.	.	.	.	.	16qqb/LL	.
.	.	.	.	.	.	.	16qqdd#X/JJ	.
*ped	*	*	*	*	*	*	*	*
(8D#X\L	2D#\	.	.	[2aa\	.	.	4cc#\	.
8A\	.	.	.	.	.	.	.	.
8f#\	.	.	.	.	.	.	4b\)	.
8B\J)	.	.	.	.	.	.	.	.
*Xped	*	*	*	*	*	*	*	*
!	!	!	!	!LO:N:vis=8	!	!	!	!
*ped	*	*	*	*	*	*	*	*
(8E\L	2E\	.	.	18aa\LL]	.	.	4r	.
.	.	.	.	18gg#\	.	>	.	.
.	.	.	.	18bb\	.	.	.	.
8A\	.	.	.	.	.	.	.	.
.	.	.	.	18aa\	.	.	.	.
.	.	.	.	18gg#\	.	.	.	.
8e\	.	.	.	.	.	.	(4b\	.
.	.	.	.	18ff#\	.	.	.	.
.	.	.	.	18ee\	.	.	.	.
8B\J)	.	.	.	.	.	.	.	.
.	.	.	.	18dd#X\	.	.	.	.
.	.	.	.	18cc#\JJ	.	]]	.	.
*Xped	*	*	*	*	*	*	*	*
=103	=103	=103	=103	=103	=103	=103	=103	=103
(8F#\L	2F#\	.	.	2b\)	.	.	2aa\	.
8A\	.	.	.	.	.	.	.	.
8d#X\	.	.	.	.	.	.	.	.
8B\J)	.	.	.	.	.	.	.	.
!	!	!	!	!	!	!	!LO:N:vis=8	!
(8E\L	2E\	.	.	2r	.	.	18aa\LL)	.
.	.	.	.	.	.	.	(18gg#\	.
.	.	.	.	.	.	.	18bb\	.
8A\	.	.	.	.	.	.	.	.
.	.	.	.	.	.	.	18aa\	.
.	.	.	.	.	.	.	18gg#\	.
8e\	.	.	.	.	.	.	.	.
.	.	.	.	.	.	.	18ff#\	.
.	.	.	.	.	.	.	18ee\	.
8B\J)	.	.	.	.	.	.	.	.
.	.	.	.	.	.	.	18dd#X\	.
.	.	.	.	.	.	.	18cc#\JJ	.
!!LO:LB:g=original
=104	=104	=104	=104	=104	=104	=104	=104	=104
!LO:TX:b:t=kein	!	!	!	!	!	!	!	!
!	!LO:TX:t=Pedal:dur=16q:ext=ud:problem:text with extention lines	!	!	!	!	!	!	!
(8D#X\L	2D#\	.	.	4r	.	.	2b\)	.
8A\	.	.	.	.	.	.	.	.
8f#\	.	.	.	(2b\	.	.	.	.
8B\J)	.	.	.	.	.	.	.	.
!	!	!	!	!	!	!	!LO:TX:t=cre-sce-ndo:dur=16qe:ext=ud:problem:text with extention lines	!
(8E\L	2E\	.	.	.	.	.	(4cc#\	<
8A\	.	.	.	.	.	.	.	.
!	!	!	!	!LO:TX:t=cre-sce-ndo:dur=16qe:ext=ud:problem:text with extention lines	!	!	!	!
8e\	.	.	.	4b\	.	<	4ddn\)	.
8B\J)	.	.	.	.	.	.	.	.
=105	=105	=105	=105	=105	=105	=105	=105	=105
(8C#\L	2C#\	.	.	2a/	.	.	(2ee\	.
8E\	.	.	.	.	.	.	.	.
8e\	.	.	.	.	.	.	.	.
8A\J)	.	.	.	.	.	.	.	.
(8C#\L	2C#\	.	.	2g#/	.	.	2ee#X\)	.
8G#\	.	.	.	.	.	.	.	.
8c#\	.	.	.	.	.	.	.	.
8B\J)	.	.	.	.	.	.	.	.
=106	=106	=106	=106	=106	=106	=106	=106	=106
(8Cn\L	2C\	.	.	2f#/	.	.	(2ff#\	.
8F#\	.	.	.	.	.	.	.	.
8d\	.	.	.	.	.	.	.	.
8A\J)	.	.	.	.	.	.	.	.
(8BB\L	2BB\	.	.	[2fn/	.	.	2ggn\)	.
8D\	.	.	.	.	.	.	.	.
8d\	.	.	.	.	.	.	.	.
8Gn\J)	.	.	.	.	.	.	.	.
=107	=107	=107	=107	=107	=107	=107	=107	=107
(8BB-X\L	2BB-\	.	.	4f/]	.	.	2gg#X\	.
8D\	.	.	.	.	.	.	.	.
8d\	.	.	.	2fn/	.	.	.	.
8B-X\J)	.	.	.	.	.	.	.	.
4AA 4AAA/	2r	.	.	.	.	.	(4aa\	.
4GG#X 4GGG#X/	.	.	.	4f/	.	[	4bbn\	[
=108	=108	=108	=108	=108	=108	=108	=108	=108
*ped	*	*	*	*	*	*	*	*
(8AAL 8AAA/	2ryy	.	.	4e/)	.	.	4ddd`\)	.
8E/	.	.	.	.	.	.	.	.
8c#/	.	.	.	2ee 2e/	.	f	2ccc#^\	.
8A/J)	.	.	.	.	.	.	.	.
(8BB-X\L	2BB-\	.	.	.	.	.	.	.
*Xped	*	*	*	*	*	*	*	*
8E\	.	.	.	.	.	.	.	.
!	!	!	!	!LO:TX:t=cre-sce-ndo:dur=16qe:ext=ud:problem:text with extention lines	!	!	!	!
*ped	*	*	*	*	*	*	*	*
8cn\	.	.	.	[4eee [4ee\	.	<	[4cccn\	.
8Gn\J)	.	.	.	.	.	.	.	.
!!LO:LB:g=original
*Xped	*	*	*	*	*	*	*	*
=109	=109	=109	=109	=109	=109	=109	=109	=109
*ped	*	*	*	*	*	*	*	*
(8BBn\L	2BB\	.	.	4eee] 4ee\]	.	.	4ccc\]	.
8E\	.	.	.	.	.	.	.	.
8B\	.	.	.	2ee 2e/	.	.	2bb\	.
8Gn\J)	.	.	.	.	.	.	.	.
*Xped	*	*	*	*	*	*	*	*
(8Cn\L	2C\	.	.	.	.	.	.	.
*ped	*	*	*	*	*	*	*	*
8E\	.	.	.	.	.	.	.	.
8B-X\	.	.	.	[4eee [4ee\	.	.	[4bb-X\	.
8G\J)	.	.	.	.	.	.	.	.
*Xped	*	*	*	*	*	*	*	*
=110	=110	=110	=110	=110	=110	=110	=110	=110
*ped	*	*	*	*	*	*	*	*
(8C#X\L	2C#X\	.	.	4eee] 4ee\]	.	.	4bb-\]	.
8Gn\	.	.	.	.	.	.	.	.
8e\	.	.	.	2aa 2a\	.	.	[2.aa\	.
8A\J)	.	.	.	.	.	.	.	.
*Xped	*	*	*	*	*	*	*	*
(8D\L	2D\	.	.	.	.	.	.	.
*ped	*	*	*	*	*	*	*	*
8Fn\	.	.	.	.	.	.	.	.
8fn\	.	.	.	[4aaa [4aa\	.	[[	.	.
8d\J)	.	.	.	.	.	.	.	.
*Xped	*	*	*	*	*	*	*	*
*v	*v	*	*	*	*	*	*	*
=111	=111	=111	=111	=111	=111	=111	=111
*ped	*	*	*	*	*	*	*
(8D#X\L	.	.	4aaa] 4aa\]	.	.	4aa\]	.
8A\	.	.	.	.	.	.	.
8f#X\	.	.	2.aa 2.a\	.	.	2bbn\	.
8cn\J	.	.	.	.	.	.	.
8A/L	.	.	.	.	.	.	.
8F#/	.	.	.	.	.	.	.
8Cn/	.	.	.	.	.	(4bb#X\	.
8DD#X/J)	.	.	.	.	.	.	.
*Xped	*	*	*	*	*	*	*
=112	=112	=112	=112	=112	=112	=112	=112
*^	*	*	*	*	*	*	*
*ped	*	*	*	*	*	*	*	*
8EE\L	2EE\	.	.	4r	.	<	4ccc#\)	.
8AA\	.	.	.	.	.	.	.	.
8C#X\	.	.	.	4r	.	.	(4aa\	.
8Dn\J	.	.	.	.	.	.	.	.
*Xped	*	*	*	*	*	*	*	*
!	!	!	!	!LO:TX:t=P:problem:łuk zaczyna się w lewej ręce	!	!	!	!
4r	2r	.	.	(8D#X/L	.	.	4gg#\	.
.	.	.	.	8F#/	.	.	.	.
4r	.	.	.	8A/	.	.	4ff#\)	.
.	.	.	.	8B#X/J	.	.	.	.
*v	*v	*	*	*	*	*	*	*
=113	=113	=113	=113	=113	=113	=113	=113
*	*	*	*^	*	*	*	*
2r	.	.	8c#/L	2ryy	.	.	(4ee\	.
.	.	.	8dn/	.	.	.	.	.
.	.	.	8d#X/	.	.	[ f	8dd\L	.
.	.	.	8e/J	.	.	.	8cc#\J)	.
2E 2EE/	.	.	2g#/	(6fn^\	.	.	(4.cc#\	.
.	.	.	.	6e\	.	.	.	.
.	.	.	.	6dn\)	.	.	.	.
.	.	.	.	.	.	.	8b\	.
*	*	*	*v	*v	*	*	*	*
!!LO:LB:g=original
=114	=114	=114	=114	=114	=114	=114	=114
*ped	*	*	*	*	*	*	*
4AA 4AAA/	.	.	4a 4c#/)	.	f	4a/)	.
!	!	!	!LO:TX:b:t=risoluto	!	!	!	!
8BBL 8BBB/	.	.	4r	.	.	4r	.
8C#J 8CC#/	.	.	.	.	.	.	.
*Xped	*	*	*	*	*	*	*
8DL 8DD/	.	.	2r	.	.	2r	.
8E 8EE/	.	.	.	.	.	.	.
8F# 8FF#/	.	.	.	.	.	.	.
8G#J 8GG#/	.	.	.	.	.	.	.
=115	=115	=115	=115	=115	=115	=115	=115
6A 6AA\	.	.	1r	.	.	1r	.
6E 6EE/	.	.	.	.	.	.	.
6F# 6FF#/	.	.	.	.	.	.	.
6G# 6GG#/	.	.	.	.	.	.	.
6A 6AA\	.	.	.	.	.	.	.
6B 6BB\	.	.	.	.	.	.	.
=116	=116	=116	=116	=116	=116	=116	=116
2.c# 2.C#\	.	.	4ee 4e/	.	f	1r	.
.	.	.	8ff#L 8f#\	.	.	.	.
.	.	.	8gg#J 8g#\	.	.	.	.
.	.	.	8aaL 8a\	.	.	.	.
.	.	.	8bb 8b\	.	.	.	.
4B 4BB\	.	.	8ccc# 8cc#\	.	.	.	.
.	.	.	8dddJ 8dd\	.	.	.	.
=117	=117	=117	=117	=117	=117	=117	=117
2.A 2.AA\	.	.	6eee 6ee\	.	.	1r	.
.	.	.	6aa 6a\	.	.	.	.
.	.	.	6bb 6b\	.	.	.	.
.	.	.	6ccc# 6cc#\	.	.	.	.
.	.	.	6ddd 6dd\	.	.	.	.
4Gn 4GGn/	.	.	.	.	.	.	.
.	.	.	6eee 6ee\	.	.	.	.
=118	=118	=118	=118	=118	=118	=118	=118
2F# 2FF#/	.	.	2fff# 2ccc# 2aa#X 2ff#\	.	ff	4f#/	f
.	.	.	.	.	.	8g#X/L	.
.	.	.	.	.	.	8a#X/J	.
2r	.	.	2r	.	.	8b\L	.
.	.	.	.	.	.	8cc#\	.
.	.	.	.	.	.	8dd#X\	.
.	.	.	.	.	.	8ee#X\J	.
=119	=119	=119	=119	=119	=119	=119	=119
1r	.	.	1r	.	.	6ff#\	.
.	.	.	.	.	.	6cc#\	.
.	.	.	.	.	.	6dd#X\	.
.	.	.	.	.	.	6ee#X\	.
.	.	.	.	.	.	6ff#\	.
.	.	.	.	.	.	6gg#\	.
=120	=120	=120	=120	=120	=120	=120	=120
2r	.	.	2r	.	.	4aa#X\	.
.	.	.	.	.	.	4r	.
4..G-X 4..GG-X/	.	.	4..g-X 4..d-X 4..B-X/	.	f	4..bb-X\	.
16E-X 16EE-X/	.	.	16g- 16e-X 16A/	.	.	16cccn\	.
=121	=121	=121	=121	=121	=121	=121	=121
2BB-X 2BBB-X/	.	.	2fn 2dn 2B-X/	.	.	2ddd\	.
4..GGn 4..GGGn/	.	.	4..b-X 4..gn 4..d 4..B-/	.	.	(4..ddd\	.
16FFn 16FFFn/	.	.	16ccn 16a 16e-X 16cn/	.	.	16ddd#X\)	.
!!LO:PB:g=original
=122	=122	=122	=122	=122	=122	=122	=122
2EE 2EEE/	.	.	4cc#X 4a 4en 4c#X/	.	ff	[1eee	ff
!	!	!	!LO:TX:b:t=appassionato	!	!	!	!
.	.	.	(4aaa 4aa\	.	.	.	.
2r	.	.	4ggg# 4gg#\	.	.	.	.
.	.	.	4fff# 4ff#\	.	.	.	.
=123	=123	=123	=123	=123	=123	=123	=123
2E 2EE/	.	.	4eee 4ee\	.	.	4eee\]	.
.	.	.	4ddd 4dd\	.	.	(4eee#X\	.
4G# 4D\	.	.	4ccc# 4cc#\	.	.	4fff#\	.
4d 4G#\	.	.	4bb 4b\	.	.	4ggg#\)	.
=124	=124	=124	=124	=124	=124	=124	=124
4c# 4E 4AA\	.	.	4aa 4a\)	.	.	8aaa\	.
.	.	.	.	.	.	8r	.
4r	.	.	4r	.	.	(4een\	mf
2r	.	.	2r	.	.	4g#/	.
.	.	.	.	.	.	4a/)	.
=125	=125	=125	=125	=125	=125	=125	=125
*^	*	*	*^	*	*	*	*
4r	1F# 1FF#	.	.	4r	1f#^	.	sf	(1a#X	.
8r	.	.	.	8r	.	.	.	.	.
8e\	.	.	.	8ggn\	.	.	p	.	.
(8e\L	.	.	.	(8gg\L	.	.	.	.	.
8d\)	.	.	.	8ff#\)	.	.	.	.	.
(8d\	.	.	.	(8ff#\	.	.	.	.	.
8c#\J)	.	.	.	8ee\J)	.	.	.	.	.
*	*	*	*	*v	*v	*	*	*	*
=126	=126	=126	=126	=126	=126	=126	=126	=126
4B/	4BB\	.	.	4dd 4f#/	.	.	4b\)	.
4r	4ryy	.	.	4r	.	.	(4dd\	.
2r	2ryy	.	.	2r	.	.	4ee\	.
.	.	.	.	.	.	.	4ffn\)	.
*v	*v	*	*	*	*	*	*	*
=127	=127	=127	=127	=127	=127	=127	=127
(1E 1EE	.	.	4r	.	.	(1g#	.
.	.	.	8r	.	.	.	.
.	.	.	8fn 8d/	.	p	.	.
.	.	.	(8fL 8d/	.	>	.	.
.	.	.	8e 8c#/)	.	.	.	.
.	.	.	(8e 8c#/	.	.	.	.
.	.	.	8dJ 8B/)	.	.	.	.
=128	=128	=128	=128	=128	=128	=128	=128
8AA 8AAA/)	.	.	8c# 8A/	.	.	4a/)	.
8r	.	.	8r	.	]	.	.
4r	.	.	4r	.	.	4r	.
(2e\	.	.	(2ee\	.	.	2r	.
=129	=129	=129	=129	=129	=129	=129	=129
2G#\	.	.	2g#/	.	.	1r	.
2A\	.	.	2a/	.	.	.	.
=130	=130	=130	=130	=130	=130	=130	=130
16qqG#/LL	.	.	16qqg#/LL)	.	.	.	.
16qqA/	.	.	16qqa/	.	.	.	.
16qqB/JJ	.	.	16qqb/JJ	.	.	.	.
1A)	.	.	(1a	.	.	1r	.
=131	=131	=131	=131	=131	=131	=131	=131
!	!	!	!LO:TX:b:t=calmato	!	!	!	!
4r	.	.	1ccn 1a 1fn 1cn)	.	p	1r	.
(4Fn\	.	.	.	.	.	.	.
4GG#/	.	.	.	.	.	.	.
4AA/	.	.	.	.	.	.	.
!!LO:LB:g=original
=132	=132	=132	=132	=132	=132	=132	=132
*	*	*	*^	*	*	*	*
*	*	*	*	*^	*	*	*	*
!	!	!	!LO:TX:b:t=e legato	!	!	!	!	!	!
2BB-X/	.	.	4.dd/	2fn\	1d	.	.	1r	.
.	.	.	8dd/	.	.	.	.	.	.
2D\	.	.	(8dd/L	2f#X\	.	.	.	.	.
.	.	.	8ccn/)	.	.	.	.	.	.
.	.	.	(8cc/	.	.	.	.	.	.
.	.	.	8b-X/J)	.	.	.	.	.	.
*	*	*	*	*v	*v	*	*	*	*
=133	=133	=133	=133	=133	=133	=133	=133	=133
2GGn/	.	.	4.b-X/	2g# 2d\	.	.	1r	.
.	.	.	8b-/	.	.	.	.	.
2Cn/	.	.	(8b-/L	2e 2B-X\	.	.	.	.
.	.	.	8a/)	.	.	.	.	.
.	.	.	(8a/	.	.	.	.	.
.	.	.	8g#/J)	.	.	.	.	.
*	*	*	*v	*v	*	*	*	*
=134	=134	=134	=134	=134	=134	=134	=134
4FFn/)	.	.	4fn 4A/	.	.	2r	.
!	!	!	!LO:TX:a:t=legato	!	!LO:DY:a	!	!
(8A\L	.	.	(4ccn\	.	p p	.	.
8cn\J	.	.	.	.	.	.	.
8B-X\L	.	.	4e/	.	.	[2ccn\	.
8c\	.	.	.	.	.	.	.
8A\	.	.	4f/	.	.	.	.
8c\J	.	.	.	.	.	.	.
=135	=135	=135	=135	=135	=135	=135	=135
8B-X\L	.	.	4e/	.	<	1cc_	<
8cn\	.	.	.	.	.	.	.
8A\	.	.	4fn/	.	.	.	.
8c\J	.	.	.	.	.	.	.
8Gn\L	.	.	4gn/	.	.	.	.
8B-\	.	.	.	.	.	.	.
8Fn\	.	.	4a/	.	[[	.	.
8A\J	.	.	.	.	.	.	.
=136	=136	=136	=136	=136	=136	=136	=136
8E\L	.	.	[1b-X)	.	.	2cc\]	[
8Gn\	.	.	.	.	.	.	.
8E\	.	.	.	.	.	.	.
8G\J	.	.	.	.	.	.	.
8E\L	.	.	.	.	.	2ccn\	.
8G\	.	.	.	.	.	.	.
8E\	.	.	.	.	.	.	.
8G\J	.	.	.	.	.	.	.
=137	=137	=137	=137	=137	=137	=137	=137
8E-X\L	.	.	4.b-\]	.	.	(1cc#X	.
8Gn\	.	.	.	.	.	.	.
8E-\	.	.	.	.	.	.	.
8G\J	.	.	8b-X\	.	>	.	.
8E-\L	.	.	(8b-/L	.	.	.	.
8G\	.	.	8a/)	.	.	.	.
8E-\	.	.	(8a/	.	.	.	.
8G\J)	.	.	8gn/J)	.	]]	.	.
!!LO:LB:g=original
=138	=138	=138	=138	=138	=138	=138	=138
(8AL 8D\	.	.	8f#/	.	.	4dd\)	.
8d\	.	.	8r	.	.	.	.
8c#\	.	.	(4dd\	.	p	4r	.
8d\J	.	.	.	.	.	.	.
8cn\L	.	.	4f#/	.	.	(2dd\	.
8d\	.	.	.	.	.	.	.
8B-X\	.	.	4gn/	.	.	.	.
8d\J	.	.	.	.	.	.	.
=139	=139	=139	=139	=139	=139	=139	=139
8cn\L	.	.	4f#/	.	<	1dd	.
8d\	.	.	.	.	.	.	.
8B-X\	.	.	4gn/	.	.	.	.
8d\J	.	.	.	.	.	.	.
8A\L	.	.	4a/	.	.	.	.
8c\	.	.	.	.	.	.	.
8Gn\	.	.	4b-X\	.	[[	.	.
8B-\J	.	.	.	.	.	.	.
=140	=140	=140	=140	=140	=140	=140	=140
8F#\L	.	.	[1ccn)	.	.	2dd\)	.
8A\	.	.	.	.	.	.	.
8F#\	.	.	.	.	.	.	.
8A\J	.	.	.	.	.	.	.
8F#\L	.	.	.	.	.	2dd\	.
8A\	.	.	.	.	.	.	.
8F#\	.	.	.	.	.	.	.
8A\J	.	.	.	.	.	.	.
=141	=141	=141	=141	=141	=141	=141	=141
8Fn\L	.	.	4.cc\]	.	.	(1dd#X	.
8A\	.	.	.	.	.	.	.
8F\	.	.	.	.	.	.	.
8A\J	.	.	8ccn\	.	.	.	.
8F\L	.	.	(8cc\L	.	>	.	.
8A\	.	.	8bn\)	.	.	.	.
8F\	.	.	(8b\	.	.	.	.
8A\J)	.	.	8a\J)	.	]]	.	.
=142	=142	=142	=142	=142	=142	=142	=142
(8BL 8E\	.	.	8g#/	.	.	4ee\)	.
8e\	.	.	8r	.	.	.	.
8d#X\	.	.	(4ee\	.	.	4r	.
8e\J	.	.	.	.	.	.	.
8dn\L	.	.	4g#/	.	.	(2ee\	.
8e\	.	.	.	.	.	.	.
8cn\	.	.	4a/	.	.	.	.
8e\J	.	.	.	.	.	.	.
!!LO:LB:g=original
=143	=143	=143	=143	=143	=143	=143	=143
8d\L	.	.	4g#/	.	<	1ee	.
8e\	.	.	.	.	.	.	.
8cn\	.	.	4a/	.	.	.	.
8e\J	.	.	.	.	.	.	.
8B\L	.	.	4b\	.	.	.	.
8d\	.	.	.	.	.	.	.
8A\	.	.	4ccn\)	.	[[	.	.
8c\J)	.	.	.	.	.	.	.
=144	=144	=144	=144	=144	=144	=144	=144
*ped	*	*	*	*	*	*	*
(8Gn\L	.	.	(8b-X\L	.	p	4.ee\)	.
8c#X\	.	.	8bb-X\)	.	.	.	.
8G\	.	.	(8bb-\	.	.	.	.
8c#\J	.	.	8b-\J)	.	.	8ggn\	p
*Xped	*	*	*	*	*	*	*
!	!	!	!LO:TX:b:t=leggiero	!	!	!	!
8Fn\L	.	.	(8a\L	.	.	(8gg\L	.
*ped	*	*	*	*	*	*	*
8d\	.	.	8aa\)	.	.	8ffn\)	.
8F\	.	.	(8aa\	.	.	(8ff\	.
8d\J	.	.	8a\J)	.	.	8ee\J)	.
*Xped	*	*	*	*	*	*	*
=145	=145	=145	=145	=145	=145	=145	=145
!LO:TX:b:t=simile	!	!	!	!	!	!	!
8Fn\L	.	.	(8a-X\L	.	.	4.dd\	.
8Bn\	.	.	8aa-X\)	.	.	.	.
8F\	.	.	(8aa-\	.	.	.	.
8B\J	.	.	8a-\J)	.	.	8ffn\	.
8E\L	.	.	(8gn\L	.	.	(8ff\L	.
8cn\	.	.	8ggn\)	.	.	8ee\)	.
8E\	.	.	(8gg\	.	.	(8ee\	.
8c\J	.	.	8g\J)	.	.	8dd\J)	.
=146	=146	=146	=146	=146	=146	=146	=146
8E\L	.	.	(8gn\L	.	.	4.ccn\	.
8A\	.	.	8ggn\)	.	.	.	.
8E\	.	.	(8gg\	.	.	.	.
8A\J	.	.	8g\J)	.	.	8ee\	.
8D\L	.	.	(8fn\L	.	.	(8ee\L	.
8A\	.	.	8ffn\)	.	.	8dd\)	.
8D\	.	.	(8ff\	.	.	(8dd\	.
8A\J	.	.	8f\J)	.	.	8cc\J)	.
=147	=147	=147	=147	=147	=147	=147	=147
8D\L	.	.	(8fn\L	.	.	4.b\	.
8A\	.	.	8ffn\)	.	.	.	.
8D\	.	.	(8ff\	.	.	.	.
8A\J	.	.	8f\J)	.	.	8ccn\	.
8D#X\L	.	.	(8f#X\L	.	.	(8cc\L	.
8A\	.	.	8ff#X\)	.	.	8b\)	.
8D#\	.	.	(8ff#\	.	.	(8b\	.
8A\J	.	.	8f#\J)	.	.	8a\J)	.
=148	=148	=148	=148	=148	=148	=148	=148
4G# 4E\)	.	.	4ee 4e/	.	.	4e/	.
4r	.	.	4r	.	.	(4ee\	.
2r	.	.	2r	.	.	4g#/	.
.	.	.	.	.	.	4a/)	.
!!LO:PB:g=original
=149	=149	=149	=149	=149	=149	=149	=149
4r	.	.	4r	.	.	(4ccn^\	.
(4B 4BB\	.	.	2b 2a 2fn/	.	p	4b\)	.
4C# 4CC#/	.	.	.	.	.	4r	.
4D 4DD/)	.	.	4b 4a 4f/	.	.	(4b\	.
=150	=150	=150	=150	=150	=150	=150	=150
4r	.	.	4r	.	.	4ccn^\	.
!	!	!	!	!	!	!LO:TX:b:t=poco	!
!	!	!	!LO:TX:t=cre-scen-do:dur=16q:ext=ud:problem:text with extention lines	!	!	!	!
(4B 4BB\	.	.	2b 2a 2f#X/	.	<	4b\)	.
4D 4DD/	.	.	.	.	.	4r	.
!	!	!	!	!	!	!LO:TX:b:t=a 	!
4D#X 4DD#X/)	.	.	4b 4a 4f#/	.	.	(4b\	.
=151	=151	=151	=151	=151	=151	=151	=151
4r	.	.	4r	.	.	4ccn^\	.
!	!	!	!	!	!	!LO:TX:b:t=poco	!
(4B 4BB\	.	.	2b 2g# 2e/	.	.	4b\)	.
4D#X 4DD#X/	.	.	.	.	.	4r	.
4E 4EE/)	.	.	4b 4g# 4e/	.	.	(4b\	.
=152	=152	=152	=152	=152	=152	=152	=152
!	!	!	!	!	!	!LO:TX:t=cresc.:problem:text with extention lines	!
4r	.	.	4r	.	.	4dd^\	.
!	!	!	!LO:TX:b:t=poco	!	!	!	!
(4c# 4C#\	.	.	2cc# 2b 2g#/	.	.	4cc#X\)	.
4E 4EE/	.	.	.	.	.	4r	.
!	!	!	!LO:TX:b:t=a	!	!	!	!
4E#X 4EE#X/)	.	.	4cc# 4b 4g#/	.	.	(4cc#\	.
=153	=153	=153	=153	=153	=153	=153	=153
4r	.	.	4r	.	.	4dd^\	.
!	!	!	!LO:TX:b:t=poco	!	!	!	!
(4c# 4C#\	.	.	2cc# 2a 2f#/	.	.	4cc#\)	.
4E#X 4EE#X/	.	.	.	.	.	4r	.
4F# 4FF#/)	.	.	4cc# 4a 4f#/	.	.	(4cc#\	.
=154	=154	=154	=154	=154	=154	=154	=154
4r	.	.	4r	.	.	4ee^\	.
(4c# 4C#\	.	.	2dd#X 2cc# 2a\	.	.	4dd#X\)	.
4E#X 4EE#X/	.	.	.	.	.	4r	.
4F# 4FF#/)	.	.	[4dd# [4cc# [4a\	.	.	(4dd#\	[[
=155	=155	=155	=155	=155	=155	=155	=155
4r	.	.	4dd#] 4cc#] 4a\]	.	.	4ff#\	>
(4c# 4C#\	.	.	4ee 4g#\	.	.	4ee\	.
4F# 4FF#/	.	.	4ff# 4a\	.	.	4dd#X\	.
!	!	!	!	!LO:TX:b:t=al	!	!	!
4F##X 4FF##X/	.	.	4ee 4a#X\	.	[[	4cc#\	.
=156	=156	=156	=156	=156	=156	=156	=156
8G# 8GG#/)	.	.	(8ff#XL 8dd#X\	.	f	4g#/)	.
8r	.	.	8g#\	.	.	.	.
(4G# 4GG#/	.	.	8gg#\	.	.	4r	]
.	.	.	8g#\J	.	.	.	.
4BB#X 4BBB#X/	.	.	8gg#\L	.	.	[2gg# [2g#\	f > ]]
.	.	.	8g#\	.	.	.	.
4C# 4CC#/	.	.	8gg#\	.	.	.	.
.	.	.	8g#\J)	.	.	.	.
!!LO:LB:g=original
=157	=157	=157	=157	=157	=157	=157	=157
4BB#X 4BBB#X/	.	.	(8gg#\L	.	<	2.gg#] 2.g#\]	.
.	.	.	8g#\	.	.	.	.
4C# 4CC#/	.	.	8gg#\	.	.	.	.
.	.	.	8g#\J	.	.	.	.
4D#X 4DD#X/	.	.	8gg#\L	.	.	.	.
.	.	.	8g#\	.	.	.	.
4E 4EE/	.	.	8gg#\	.	.	4r	.
.	.	.	8g#\J)	.	[[	.	.
=158	=158	=158	=158	=158	=158	=158	=158
2.F# 2.FF#/	.	.	8r	.	f	4r	.
.	.	.	(8a\L	.	.	.	.
.	.	.	8aa\	.	.	(4aa\	f
.	.	.	8a\J	.	.	.	.
.	.	.	8aa\L	.	.	4b#X\	.
.	.	.	8a\	.	.	.	.
4E 4EE/	.	.	8gg#\	.	.	4cc#\)	.
.	.	.	8g#\J	.	.	.	.
=159	=159	=159	=159	=159	=159	=159	=159
4D#X 4DD#X/	.	.	8ff#\L	.	.	(4b#X\	.
.	.	.	8f#\	.	.	.	.
4C# 4CC#/	.	.	8ee\	.	.	4cc#\)	.
.	.	.	8e\J	.	.	.	.
4FF# 4FFF#/	.	.	8dd#X/L	.	.	(8dd#X\	.
.	.	.	8d#X/	.	.	4ff#\	.
4FF##X 4FFF##X/	.	.	8cc#/	.	.	.	.
.	.	.	8c#/J	.	.	8ee\	.
=160	=160	=160	=160	=160	=160	=160	=160
8GG# 8GGG#/)	.	.	8b#XL 8g# 8B#X/)	.	.	4dd#X\)	.
8r	.	.	(8g#/	.	.	.	.
(4G# 4GG#/	.	.	8gg#/	.	.	4r	.
.	.	.	8g#/J	.	.	.	.
4BB#X 4BBB#X/	.	.	8gg#\L	.	.	2r	.
.	.	.	8g#\	.	.	.	.
4C# 4CC#/	.	.	8gg#\	.	.	.	.
.	.	.	8g#\J)	.	.	.	.
=161	=161	=161	=161	=161	=161	=161	=161
4BB#X 4BBB#X/	.	.	(8gg#\L	.	.	1r	.
.	.	.	8g#\	.	.	.	.
4C# 4CC#/	.	.	8gg#\	.	.	.	.
.	.	.	8g#\J	.	.	.	.
4D#X 4DD#X/	.	.	8gg#\L	.	.	.	.
.	.	.	8g#\	.	.	.	.
4E 4EE/	.	.	8gg#\	.	.	.	.
.	.	.	8g#\J)	.	.	.	.
=162	=162	=162	=162	=162	=162	=162	=162
2.F# 2.FF#^/	.	.	8r	.	f	4r	.
.	.	.	(8a\L	.	.	.	.
.	.	.	8aa\	.	.	(4aa\	f
.	.	.	8a\J	.	.	.	.
.	.	.	8aa\L	.	.	4b#X\	.
.	.	.	8a\	.	.	.	.
4E 4EE/	.	.	8gg#\	.	.	4cc#\)	.
.	.	.	8g#\J	.	.	.	.
!!LO:LB:g=original
=163	=163	=163	=163	=163	=163	=163	=163
4D#X 4DD#X/	.	.	8ff#\L	.	.	(4b#X\	.
.	.	.	8f#\	.	.	.	.
4C# 4CC#/	.	.	8ee\	.	.	4cc#\)	.
.	.	.	8e\J	.	.	.	.
4FF# 4FFF#/	.	.	8dd#X/L	.	.	(8dd#X\	.
.	.	.	8d#X/	.	.	4ff#\	.
4FF##X 4FFF##X/	.	.	8cc#/	.	.	.	.
.	.	.	8c#/J)	.	.	8ee\	.
=164	=164	=164	=164	=164	=164	=164	=164
!	!	!	!	!LO:TX:t=cre-sce-ndo:dur=16q:ext=ud:problem:text with extention lines	!	!	!
*ped	*	*	*	*	*	*	*
(8GG#L 8GGG#/)	.	.	(8b#X/L	.	.	4dd#X\)	.
8BB#X/	.	.	8g#/	.	.	.	.
8D#X/	.	.	8d#X/	.	.	(4g#/	.
8G#/J)	.	.	8B/J)	.	<	.	.
*Xped	*	*	*	*	*	*	*
(8GG#/L	.	.	(8cc#/L	.	.	4gg#\	.
*ped	*	*	*	*	*	*	*
8C#/	.	.	8g#/	.	.	.	.
8E/	.	.	8e/	.	.	8ff#\L	.
8G#/J)	.	.	8c#/J)	.	.	8ee\J	.
*Xped	*	*	*	*	*	*	*
=165	=165	=165	=165	=165	=165	=165	=165
*ped	*	*	*	*	*	*	*
(8GG#\L	.	.	(8dd#X/L	.	.	8dd#X\L)	.
8D#X\	.	.	8b#X/	.	.	(8b#X\	.
8G#\	.	.	8g#/	.	.	8cc#\	.
8B#X\J)	.	.	8d#X/J)	.	.	8cc##X\J	.
*Xped	*	*	*	*	*	*	*
(8GG#\L	.	.	(8dd#/L	.	.	4.dd#\	.
*ped	*	*	*	*	*	*	*
8D#\	.	.	8cc#/	.	.	.	.
8F##X\	.	.	8f##X/	.	.	.	.
8c#\J)	.	.	8d#/J)	.	.	8cc#X\	.
*Xped	*	*	*	*	*	*	*
=166	=166	=166	=166	=166	=166	=166	=166
*ped	*	*	*	*	*	*	*
(8GG#\L	.	.	(8dd#X/L	.	.	4b#X\)	.
8D#X\	.	.	8b#X/	.	.	.	.
8G#\	.	.	8g#/	.	.	(4G#/	.
*Xped	*	*	*	*	*	*	*
8B#X\J)	.	.	8d/J)	.	.	.	.
*ped	*	*	*	*	*	*	*
(8GG#\L	.	.	(8dd#/L	.	.	4a/	.
8F#X\	.	.	8a/	.	.	.	.
8A\	.	.	8f#/	.	.	8g#/L	.
8B#\J)	.	.	8d/J)	.	.	8f#/J	.
*Xped	*	*	*	*	*	*	*
=167	=167	=167	=167	=167	=167	=167	=167
*ped	*	*	*	*	*	*	*
(8GG#\L	.	.	(8ee/L	.	.	8e/L)	.
8E\	.	.	8cc#/	.	.	(8B#X/	.
8G#\	.	.	8g#/	.	[	8c#/	.
8c#\J)	.	.	8e/J)	.	.	8c##X/J	.
*Xped	*	*	*	*	*	*	*
(8GG#\L	.	.	(8aa#X\L	.	.	2d#X/)	.
*ped	*	*	*	*	*	*	*
8D#X\	.	.	8dd#X\	.	.	.	.
8F##X\	.	.	8cc#\	.	.	.	.
8c#\J)	.	.	8f##X\J)	.	.	.	.
!!LO:LB:g=original
*Xped	*	*	*	*	*	*	*
=168	=168	=168	=168	=168	=168	=168	=168
*ped	*	*	*	*	*	*	*
4GG#/	.	.	(8g#\L	.	.	[1G#	.
.	.	.	8b#X\	.	.	.	.
4r	.	.	8dd#X\	.	.	.	.
.	.	.	8gg#\J	.	.	.	.
*clefG2	*	*	*	*	*	*	*
(8gg#\L	.	.	8ggg#\L	.	f	.	.
8dd#X\	.	.	8ddd#X\	.	.	.	.
8b#X\	.	.	8bb#X\	.	.	.	.
8g#\J	.	.	8gg#\J	.	.	.	.
=169	=169	=169	=169	=169	=169	=169	=169
8dd#X/L	.	.	8ddd#X\L	.	.	1G#]	.
8b#X/	.	.	8bb#X\	.	.	.	.
8g#/	.	.	8gg#\	.	.	.	.
8d#X/J	.	.	8dd#X\J	.	.	.	.
8b#/L	.	.	8bb#\L	.	.	.	.
8g#/	.	.	8gg#\	.	.	.	.
8d#/	.	.	8dd#\	.	.	.	.
8B#X/J	.	.	8b#X\J	.	.	.	.
=170	=170	=170	=170	=170	=170	=170	=170
8g#/L	.	.	8gg#\L	.	.	[1B#X	.
8d#X/	.	.	8dd#X\	.	.	.	.
8B#X/	.	.	8b#X\	.	.	.	.
8G#/J	.	.	8g#\J	.	.	.	.
*clefF4	*	*	*	*	*	*	*
!	!	!	!LO:TX:t=di-mi-nu-en-do-al:dur=24q:ext=ud:problem:text with extention lines	!	!	!	!
8d#X\L	.	.	8dd#/L	.	>	.	.
8B#X\	.	.	8b#/	.	.	.	.
8G#\	.	.	8g#/	.	.	.	.
8D#X\J	.	.	8d#X/J	.	.	.	.
=171	=171	=171	=171	=171	=171	=171	=171
8B#X\L	.	.	8b#X/L	.	.	1B#]	.
8G#\	.	.	8g#/	.	.	.	.
8D#X\	.	.	8d#X/	.	.	.	.
8BB#X\J	.	.	8B#X/J	.	.	.	.
8G#/L	.	.	8g#/L	.	.	.	.
8D#/	.	.	8d#/	.	.	.	.
8BB#/	.	.	8B#/	.	.	.	.
8GG#/J	.	.	8G#/J	.	.	.	.
=172	=172	=172	=172	=172	=172	=172	=172
8D#X/L	.	.	8d#X/L	.	.	[1d#X	>
8BB#X/	.	.	8B#X/	.	.	.	.
8GG#/	.	.	8G#/	.	.	.	.
8DD#X/J	.	.	8D#X/J	.	.	.	.
8BB#X/L	.	.	8B#/L	.	.	.	.
8GG#/	.	.	8G#/	.	.	.	.
8DD#/	.	.	8D#X/	.	.	.	.
8BBB#X/J	.	.	8BB#X/J	.	]]	.	[
*	*	*	*clefF4	*	*	*	*
!!LO:PB:g=original
=173	=173	=173	=173	=173	=173	=173	=173
8GG#/L	.	.	8G#/L	.	.	1d#]	.
8DD#X/	.	.	8D#X/	.	.	.	.
8BBB#X/	.	.	8BB#X/	.	.	.	.
8GGG#/J	.	.	8GG#/J	.	.	.	.
8GG#/L	.	.	8G#/L	.	.	.	.
8DD#/	.	.	8D#/	.	.	.	.
8BBB#/	.	.	8BB#/	.	.	.	.
8GGG#/J	.	.	8GG#/J	.	.	.	.
=174	=174	=174	=174	=174	=174	=174	=174
8GG#/L	.	.	8G#/L	.	.	[1g#	.
8DD#X/	.	.	8D#X/	.	.	.	.
8BBB#X/	.	.	8BB#X/	.	.	.	.
8GGG#/J	.	.	8GG#/J	.	.	.	.
8GG#/L	.	.	8G#/L	.	.	.	.
8DD#/	.	.	8D#/	.	.	.	.
8BBB#/	.	.	8BB#/	.	.	.	.
8GGG#/J	.	.	8GG#/J	.	.	.	.
=175	=175	=175	=175	=175	=175	=175	=175
8GG#/L	.	.	8G#/L	.	.	1g#_	.
8DD#X/	.	.	8D#X/	.	.	.	.
8BBB/	.	.	8BB#X/	.	.	.	.
8GGG#/J	.	.	8GG#/J	.	.	.	.
8GG#/L	.	.	8G#/L	.	.	.	.
8DD#/	.	.	8D#/	.	.	.	.
8BBB/	.	.	8BB#/	.	.	.	.
8GGG#/J	.	.	8GG#/J	.	.	.	.
*Xped	*	*	*	*	*	*	*
=176	=176	=176	=176	=176	=176	=176	=176
*ped	*	*	*	*	*	*	*
4GG#/)	.	.	4G#\)	.	p	4g#/]	.
4r	.	.	4r	.	.	4r	.
2r	.	.	2G#\	.	.	2r	.
=177	=177	=177	=177	=177	=177	=177	=177
1r	.	.	(2G#'\	.	.	1r	.
.	.	.	2G#'\)	.	.	.	.
=178	=178	=178	=178	=178	=178	=178	=178
!	!	!	!LO:TX:b:t=cantab.	!	!	!	!
4r	.	.	(1G#	.	p	4r	.
(4CC#/	.	.	.	.	.	(4cc#\	.
4B\	.	.	.	.	.	4c#/	.
8A\L	.	.	.	.	.	4d/)	.
8G#\J	.	.	.	.	.	.	.
*Xped	*	*	*	*	*	*	*
=179	=179	=179	=179	=179	=179	=179	=179
8F#\L	.	.	2A\	.	.	(4d/	.
8E#X\	.	.	.	.	.	.	.
8F#\	.	.	.	.	.	4d#X/	.
8F##X\J	.	.	.	.	.	.	.
4G#\	.	.	2B\	.	.	4e/	.
4C#/	.	.	.	.	.	4e#X/)	.
!!LO:LB:g=original
=180	=180	=180	=180	=180	=180	=180	=180
8F#X\L	.	.	2A\	.	.	(4.f#/	.
8En\	.	.	.	.	.	.	.
8D\	.	.	.	.	.	.	.
8C#\J	.	.	.	.	.	8a/)	.
8C#/L	.	.	2c#\	.	.	(8a/L	.
8BB/	.	.	.	.	.	8g#/	.
8AA/	.	.	.	.	.	8f#/	.
8GG#/J)	.	.	.	.	.	8e#X/J)	.
=181	=181	=181	=181	=181	=181	=181	=181
*ped	*	*	*	*	*	*	*
8FF#/L	.	.	2f#\	.	.	(4.f#/	.
(8C#/	.	.	.	.	.	.	.
8A/	.	.	.	.	.	.	.
*Xped	*	*	*	*	*	*	*
8C#/J	.	.	.	.	.	8cc#\)	.
*ped	*	*	*	*	*	*	*
8EE/L)	.	.	2g#\	.	.	(8cc#/L	.
(8C#/	.	.	.	.	.	8b/	.
8G#/	.	.	.	.	.	8a/	.
8C#/J	.	.	.	.	.	8g#/J	.
*Xped	*	*	*	*	*	*	*
=182	=182	=182	=182	=182	=182	=182	=182
*ped	*	*	*	*	*	*	*
8DD#X/)	.	.	4a#X\)	.	.	4f##X/)	.
8r	.	.	.	.	.	.	.
(4DD#/	.	.	4r	.	.	(4dd#X\	.
4c#\	.	.	(2A#X\	.	.	4d#X/	.
8B\L	.	.	.	.	.	4e/)	.
8A#X\J	.	.	.	.	.	.	.
*Xped	*	*	*	*	*	*	*
=183	=183	=183	=183	=183	=183	=183	=183
8G#\L	.	.	2B\	.	.	(4e/	.
8F##X\	.	.	.	.	.	.	.
8G#\	.	.	.	.	.	4e#X/	.
8G##X\J	.	.	.	.	.	.	.
4A#X\)	.	.	2c#\	.	.	4f#/	.
4D#X\	.	.	.	.	.	4f##X/)	.
=184	=184	=184	=184	=184	=184	=184	=184
(8G#X\L	.	.	2B\	.	.	(4.f#/	.
8F#X\	.	.	.	.	.	.	.
8E\	.	.	.	.	.	.	.
8D#X\J	.	.	.	.	.	8b\)	.
8D#/L	.	.	2d#X\	.	.	(8b/L	.
8C#/	.	.	.	.	.	8a#X/	.
8BB/	.	.	.	.	.	8g#/	.
8AA#X/J	.	.	.	.	.	8f##X/J)	.
*	*	*	*clefG2	*	*	*	*
=185	=185	=185	=185	=185	=185	=185	=185
*ped	*	*	*	*	*	*	*
8GG#\L)	.	.	2g#/	.	.	4g#/	.
(8D#X\	.	.	.	.	.	.	.
8B\	.	.	.	.	.	4r	.
8D#\J	.	.	.	.	.	.	.
*Xped	*	*	*	*	*	*	*
8FF#/L)	.	.	2a#X/	.	.	[2ee-X\	.
*ped	*	*	*	*	*	*	*
(8D#/	.	.	.	.	.	.	.
8A#X/	.	.	.	.	.	.	.
8D#/J	.	.	.	.	.	.	.
!!LO:LB:g=original
*Xped	*	*	*	*	*	*	*
=186	=186	=186	=186	=186	=186	=186	=186
4An 4D#X 4FFn/)	.	.	4b#X\)	.	.	4ee-\]	.
4r	.	.	4r	.	.	(4e-X/	.
2r	.	.	2r	.	.	4ee-X\	.
.	.	.	.	.	.	8dd-X\L	.
.	.	.	.	.	.	8ccn\J)	.
=187	=187	=187	=187	=187	=187	=187	=187
2r	.	.	2r	.	.	(8ccn\L	.
.	.	.	.	.	.	8a\	.
.	.	.	.	.	.	8b-X\	.
.	.	.	.	.	.	8bn\J	.
4r	.	.	4r	.	.	2cc\)	.
4F#X 4FF#X`/	.	.	4ccn 4a 4e-X 4cn`/	.	f	.	.
=188	=188	=188	=188	=188	=188	=188	=188
4Gn 4GGn`/	.	.	4ccn 4b-X 4en 4cn`/	.	.	4r	.
4r	.	.	4r	.	.	(4ccn\	.
2r	.	.	2r	.	.	4bb-X\	.
.	.	.	.	.	.	8aa-X\L	.
.	.	.	.	.	.	8ggn\J)	.
=189	=189	=189	=189	=189	=189	=189	=189
2r	.	.	2r	.	.	8ggn\L	.
.	.	.	.	.	.	(8b-X\	.
.	.	.	.	.	.	8bn\	.
.	.	.	.	.	.	8ccn\J	.
4r	.	.	4r	.	.	2cc#X\)	.
4Gn 4GGn/	.	.	4cc#X 4b-X 4e 4c#X/	.	f	.	.
=190	=190	=190	=190	=190	=190	=190	=190
1G#X 1GG#X	.	.	1cc# 1bn 1e-X 1c#	.	.	4r	.
.	.	.	.	.	.	(4cc#\	.
.	.	.	.	.	.	4ddd\	.
.	.	.	.	.	.	8ccc#\L	.
.	.	.	.	.	.	8bb\J	.
=191	=191	=191	=191	=191	=191	=191	=191
1A 1AA	.	.	[1cc# [1a [1f# [1c#	.	.	8aa\L)	.
.	.	.	.	.	.	(8ee#X\	.
.	.	.	.	.	.	8ff#\	.
.	.	.	.	.	.	8gg#\J	.
.	.	.	.	.	.	4.aa\	.
.	.	.	.	.	.	8gg#\	.
=192	=192	=192	=192	=192	=192	=192	=192
[1D [1DD^	.	.	4cc#] 4a] 4f#] 4c#/]	.	.	1ff#	.
.	.	.	(4f#/	.	.	.	.
.	.	.	4ff#\	.	.	.	.
.	.	.	8ee\L	.	.	.	.
.	.	.	8dd\J	.	.	.	.
=193	=193	=193	=193	=193	=193	=193	=193
1D] 1DD]	.	.	8cc#/L	.	.	2ff#\)	.
.	.	.	8g#/	.	.	.	.
.	.	.	8a/	.	.	.	.
.	.	.	8b/J	.	.	.	.
.	.	.	8b#X/L	.	.	(2gg#\	.
.	.	.	8g#/	.	.	.	.
.	.	.	8f#/	.	.	.	.
.	.	.	8B#X/J	.	.	.	.
!!LO:LB:g=original
=194	=194	=194	=194	=194	=194	=194	=194
*	*	*	*^	*	*	*	*
*tremolo	*	*	*	*	*	*	*	*
32CC#/LLL	.	.	4cc# 4e#X 4c#/)	2ryy	.	.	4cc#\)	.
32C#/	.	.	.	.	.	.	.	.
32CC#/	.	.	.	.	.	.	.	.
32C#/	.	.	.	.	.	.	.	.
32CC#/	.	.	.	.	.	.	.	.
32C#/	.	.	.	.	.	.	.	.
32CC#/	.	.	.	.	.	.	.	.
32C#/	.	.	.	.	.	.	.	.
32CC#/	.	.	(4c#/	.	.	.	4r	.
32C#/	.	.	.	.	.	.	.	.
32CC#/	.	.	.	.	.	.	.	.
32C#/	.	.	.	.	.	.	.	.
32CC#/	.	.	.	.	.	.	.	.
32C#/	.	.	.	.	.	.	.	.
32CC#/	.	.	.	.	.	.	.	.
32C#/JJJ	.	.	.	.	.	.	.	.
32CC#/LLL	.	.	2g# 2e#/	4d\	.	p	2r	.
32C#/	.	.	.	.	.	.	.	.
32CC#/	.	.	.	.	.	.	.	.
32C#/	.	.	.	.	.	.	.	.
32CC#/	.	.	.	.	.	.	.	.
32C#/	.	.	.	.	.	.	.	.
32CC#/	.	.	.	.	.	.	.	.
32C#/	.	.	.	.	.	.	.	.
32CC#/	.	.	.	8c#\L	.	.	.	.
32C#/	.	.	.	.	.	.	.	.
32CC#/	.	.	.	.	.	.	.	.
32C#/	.	.	.	.	.	.	.	.
32CC#/	.	.	.	8Bn\J	.	.	.	.
32C#/	.	.	.	.	.	.	.	.
32CC#/	.	.	.	.	.	.	.	.
32C#/JJJ	.	.	.	.	.	.	.	.
*	*	*	*v	*v	*	*	*	*
=195	=195	=195	=195	=195	=195	=195	=195
32CC#/LLL	.	.	8cc#L 8gn 8e 8A#X/	.	.	4r	.
32C#/	.	.	.	.	.	.	.
32CC#/	.	.	.	.	.	.	.
32C#/	.	.	.	.	.	.	.
32CC#/	.	.	8g/	.	.	.	.
32C#/	.	.	.	.	.	.	.
32CC#/	.	.	.	.	.	.	.
32C#/	.	.	.	.	.	.	.
32CC#/	.	.	8g#X/	.	.	(4cc#\	<
32C#/	.	.	.	.	.	.	.
32CC#/	.	.	.	.	.	.	.
32C#/	.	.	.	.	.	.	.
32CC#/	.	.	8a/J	.	.	.	.
32C#/	.	.	.	.	.	.	.
32CC#/	.	.	.	.	.	.	.
32C#/JJJ	.	.	.	.	.	.	.
32CC#/LLL	.	.	4ggn 4cc# 4a#X\)	.	.	4ee\	.
32C#/	.	.	.	.	.	.	.
32CC#/	.	.	.	.	.	.	.
32C#/	.	.	.	.	.	.	.
32CC#/	.	.	.	.	.	.	.
32C#/	.	.	.	.	.	.	.
32CC#/	.	.	.	.	.	.	.
32C#/	.	.	.	.	.	.	.
32CC#/	.	.	4e/	.	.	8dd\L	.
32C#/	.	.	.	.	.	.	.
32CC#/	.	.	.	.	.	.	.
32C#/	.	.	.	.	.	.	.
32CC#/	.	.	.	.	.	8cc#\J	.
32C#/	.	.	.	.	.	.	.
32CC#/	.	.	.	.	.	.	.
32C#/JJJ	.	.	.	.	.	.	.
=196	=196	=196	=196	=196	=196	=196	=196
*	*	*	*^	*	*	*	*
32CC#/LLL	.	.	4ff# 4ccn 4an 4d#X/	2ryy	.	.	8ccn/L)	.
32C#/	.	.	.	.	.	.	.	.
32CC#/	.	.	.	.	.	.	.	.
32C#/	.	.	.	.	.	.	.	.
32CC#/	.	.	.	.	.	.	(8f#/	.
32C#/	.	.	.	.	.	.	.	.
32CC#/	.	.	.	.	.	.	.	.
32C#/	.	.	.	.	.	.	.	.
32CC#/	.	.	(4d#/	.	.	.	8gn/	.
32C#/	.	.	.	.	.	.	.	.
32CC#/	.	.	.	.	.	.	.	.
32C#/	.	.	.	.	.	.	.	.
32CC#/	.	.	.	.	.	.	8g#X/J	.
32C#/	.	.	.	.	.	.	.	.
32CC#/	.	.	.	.	.	.	.	.
32C#/JJJ	.	.	.	.	.	.	.	.
32CC#/LLL	.	.	2aa 2dd#X/	4cc\	.	<	4a/	.
32C#/	.	.	.	.	.	.	.	.
32CC#/	.	.	.	.	.	.	.	.
32C#/	.	.	.	.	.	.	.	.
32CC#/	.	.	.	.	.	.	.	.
32C#/	.	.	.	.	.	.	.	.
32CC#/	.	.	.	.	.	.	.	.
32C#/	.	.	.	.	.	.	.	.
!	!	!	!	!LO:TX:t=cresc.:dur=16eq:ext=ud:problem:text with extention lines	!	!	!	!
32CC#/	.	.	.	8b\L	.	.	4d#X/	.
32C#/	.	.	.	.	.	.	.	.
32CC#/	.	.	.	.	.	.	.	.
32C#/	.	.	.	.	.	.	.	.
32CC#/	.	.	.	8a\J	.	.	.	.
32C#/	.	.	.	.	.	.	.	.
32CC#/	.	.	.	.	.	.	.	.
32C#/JJJ	.	.	.	.	.	.	.	.
*	*	*	*v	*v	*	*	*	*
=197	=197	=197	=197	=197	=197	=197	=197
32CC#/LLL	.	.	8bbL 8ee#X 8ddn 8g#\	.	.	4dn/)	.
32C#/	.	.	.	.	.	.	.
32CC#/	.	.	.	.	.	.	.
32C#/	.	.	.	.	.	.	.
32CC#/	.	.	8dd\	.	.	.	.
32C#/	.	.	.	.	.	.	.
32CC#/	.	.	.	.	.	.	.
32C#/	.	.	.	.	.	.	.
32CC#/	.	.	8dd#X\	.	.	(4b\	.
32C#/	.	.	.	.	.	.	.
32CC#/	.	.	.	.	.	.	.
32C#/	.	.	.	.	.	.	.
32CC#/	.	.	8een\J	.	.	.	.
32C#/	.	.	.	.	.	.	.
32CC#/	.	.	.	.	.	.	.
32C#/JJJ	.	.	.	.	.	.	.
32CC#/LLL	.	.	4fff# 4gg# 4ee#X\)	.	.	4dd\	.
32C#/	.	.	.	.	.	.	.
32CC#/	.	.	.	.	.	.	.
32C#/	.	.	.	.	.	.	.
32CC#/	.	.	.	.	.	.	.
32C#/	.	.	.	.	.	.	.
32CC#/	.	.	.	.	.	.	.
32C#/	.	.	.	.	.	.	.
32CC#/	.	.	4b\	.	.	8cc#\L	.
32C#/	.	.	.	.	.	.	.
32CC#/	.	.	.	.	.	.	.
32C#/	.	.	.	.	.	.	.
32CC#/	.	.	.	.	.	8b\J	.
32C#/	.	.	.	.	.	.	.
32CC#/	.	.	.	.	.	.	.
32C#/JJJ	.	.	.	.	.	.	.
=198	=198	=198	=198	=198	=198	=198	=198
*ped	*	*	*	*	*	*	*
32CC#/LLL	.	.	(4eee#X 4bb 4gg#\	.	f	8b/L)	.
32C#/	.	.	.	.	.	.	.
32CC#/	.	.	.	.	.	.	.
32C#/	.	.	.	.	.	.	.
32CC#/	.	.	.	.	.	(8g#/	.
32C#/	.	.	.	.	.	.	.
32CC#/	.	.	.	.	.	.	.
32C#/	.	.	.	.	.	.	.
32CC#/	.	.	4dd\)	.	.	8a/	.
32C#/	.	.	.	.	.	.	.
32CC#/	.	.	.	.	.	.	.
32C#/	.	.	.	.	.	.	.
32CC#/	.	.	.	.	.	8a#X/J	.
32C#/	.	.	.	.	.	.	.
32CC#/	.	.	.	.	.	.	.
32C#/JJJ	.	.	.	.	.	.	.
*	*	*	*8va	*	*	*	*
32CC#/LLL	.	.	(4ggg# 4ddd 4bb\	.	.	4b\	.
32C#/	.	.	.	.	.	.	.
32CC#/	.	.	.	.	.	.	.
32C#/	.	.	.	.	.	.	.
32CC#/	.	.	.	.	.	.	.
32C#/	.	.	.	.	.	.	.
32CC#/	.	.	.	.	.	.	.
32C#/	.	.	.	.	.	.	.
32CC#/	.	.	4ee#X/)	.	.	8an/L	.
32C#/	.	.	.	.	.	.	.
32CC#/	.	.	.	.	.	.	.
32C#/	.	.	.	.	.	.	.
32CC#/	.	.	.	.	.	8g#/J)	.
32C#/	.	.	.	.	.	.	.
32CC#/	.	.	.	.	.	.	.
32C#/JJJ	.	.	.	.	.	.	.
=199	=199	=199	=199	=199	=199	=199	=199
32CC#/LLL	.	.	(4bbb 4eee#X 4ddd\	.	.	(8g#/L	.
32C#/	.	.	.	.	.	.	.
32CC#/	.	.	.	.	.	.	.
32C#/	.	.	.	.	.	.	.
32CC#/	.	.	.	.	.	8e#X/	.
32C#/	.	.	.	.	.	.	.
32CC#/	.	.	.	.	.	.	.
32C#/	.	.	.	.	.	.	.
32CC#/	.	.	4gg#/)	.	.	8f#/	.
32C#/	.	.	.	.	.	.	.
32CC#/	.	.	.	.	.	.	.
32C#/	.	.	.	.	.	.	.
32CC#/	.	.	.	.	.	8g#/J)	.
32C#/	.	.	.	.	.	.	.
32CC#/	.	.	.	.	.	.	.
*Xped	*	*	*	*	*	*	*
32C#/JJJ	.	.	.	.	.	.	.
*ped	*	*	*	*	*	*	*
32CC#/LLL	.	.	(4bbb#X 4fff# 4ddd#X\	.	.	(4a/	.
32C#/	.	.	.	.	.	.	.
32CC#/	.	.	.	.	.	.	.
32C#/	.	.	.	.	.	.	.
32CC#/	.	.	.	.	.	.	.
32C#/	.	.	.	.	.	.	.
32CC#/	.	.	.	.	.	.	.
32C#/	.	.	.	.	.	.	.
32CC#/	.	.	4aa/)	.	[[	8g#/L	.
32C#/	.	.	.	.	.	.	.
32CC#/	.	.	.	.	.	.	.
32C#/	.	.	.	.	.	.	.
32CC#/	.	.	.	.	.	8f#/J	.
32C#/	.	.	.	.	.	.	.
32CC#/	.	.	.	.	.	.	.
32C#/JJJ	.	.	.	.	.	.	.
*Xped	*	*	*	*	*	*	*
*Xtremolo	*	*	*	*	*	*	*
=200	=200	=200	=200	=200	=200	=200	=200
*ped	*	*	*	*	*	*	*
4C# 4CC#/	.	.	11cccc#L 11ggg# 11eee#X 11ccc# 11gg#\	.	ff	4.c#/)	f
.	.	.	(11dddn\	.	.	.	.
.	.	.	11dddd\	.	.	.	.
4r	.	.	.	.	.	.	.
.	.	.	11bbb\	.	.	.	.
.	.	.	11ggg#\	.	.	.	.
.	.	.	.	.	.	8r	.
.	.	.	11eee#\	.	.	.	.
2r	.	.	.	.	.	2r	.
*	*	*	*X8va	*	*	*	*
.	.	.	11ddd\	.	.	.	.
.	.	.	11bb\	.	.	.	.
.	.	.	11gg#\	.	.	.	.
.	.	.	11ee#\	.	.	.	.
.	.	.	11dd\J	.	.	.	.
!!LO:PB:g=original
=201	=201	=201	=201	=201	=201	=201	=201
2r	.	.	16b/LL	.	.	1r	.
.	.	.	16g#/	.	.	.	.
.	.	.	16e#X/	.	.	.	.
.	.	.	16d/JJ	.	.	.	.
.	.	.	16B/LL	.	.	.	.
.	.	.	16G#/	.	.	.	.
.	.	.	16E#X/	.	.	.	.
.	.	.	16D/JJ)	.	.	.	.
*ped	*	*	*	*	*	*	*
8C#L 8CC#/	.	.	2r	.	>	.	.
8BB 8BBB/	.	.	.	.	.	.	.
8AA 8AAA/	.	.	.	.	.	.	.
8GG#J 8GGG#/	.	.	.	.	.	.	.
=202	=202	=202	=202	=202	=202	=202	=202
(8FFF#/L	.	.	1r	.	]]	4r	.
8FF#/	.	.	.	.	.	.	.
!	!	!	!	!	!	!LO:TX:b:t=espress.	!
8FFF#/	.	.	.	.	.	(4cc#\	p
8FF#/J	.	.	.	.	.	.	.
8FFF#/L	.	.	.	.	.	4e#X/	.
8FF#/	.	.	.	.	.	.	.
8FFF#/	.	.	.	.	.	4f#/)	.
8FF#/J	.	.	.	.	.	.	.
=203	=203	=203	=203	=203	=203	=203	=203
8GGG#/L	.	.	1r	.	p < [[	(4e#X/	.
8GG#/	.	.	.	.	.	.	.
8AAA/	.	.	.	.	.	4f#/	.
8AA/J	.	.	.	.	.	.	.
8BBB/L	.	.	.	.	.	4g#/	.
8BB/	.	.	.	.	.	.	.
8CC#/	.	.	.	.	.	4a/)	.
8C#/J	.	.	.	.	.	.	.
=204	=204	=204	=204	=204	=204	=204	=204
8DD/L	.	.	1r	.	<[	2b\	.
8D/	.	.	.	.	.	.	.
8DD#X/	.	.	.	.	.	.	.
8D#X/J	.	.	.	.	.	.	.
8EE/L	.	.	.	.	.	((8dd\L	.
8E/	.	.	.	.	.	8cc#\)	.
8EE#X/	.	.	.	.	.	(8cc#\	.
8E#X/J	.	.	.	.	.	8b\J))	.
=205	=205	=205	=205	=205	=205	=205	=205
8FF#/L	.	.	1r	.	>]	2.b\	.
8F#/	.	.	.	.	.	.	.
8GGn/	.	.	.	.	.	.	.
8Gn/J	.	.	.	.	.	.	.
8GG#X/L	.	.	.	.	.	.	.
8G#X/	.	.	.	.	.	.	.
8EEn/	.	.	.	.	.	4r	.
8En/J	.	.	.	.	.	.	.
!!LO:LB:g=original
=206	=206	=206	=206	=206	=206	=206	=206
4AA 4AAA/)	.	.	8r	.	.	4r	.
.	.	.	(8e\L	.	p	.	.
4r	.	.	8ee 8cc#\	.	.	(4ee\	.
.	.	.	8e\J	.	.	.	.
2r	.	.	8ffnL 8dd\	.	.	4g#/	.
.	.	.	8e\	.	.	.	.
.	.	.	8ee 8cc#\	.	.	4a/)	.
.	.	.	8e\J	.	.	.	.
=207	=207	=207	=207	=207	=207	=207	=207
2r	.	.	8ffnL 8dd\	.	.	(4g#/	.
.	.	.	8e\	.	.	.	.
.	.	.	8ee 8cc#\	.	.	4a/	.
.	.	.	8e\J	.	.	.	.
4AA 4AAA/	.	.	8ddL 8b/	.	.	4b\	.
.	.	.	8e/	.	.	.	.
4r	.	.	8cc# 8a/	.	.	4cc#\)	.
.	.	.	8e/J)	.	.	.	.
=208	=208	=208	=208	=208	=208	=208	=208
4GG# 4GGG#/	.	.	(8dd#XL 8cc#\	.	.	2dd#X\	.
.	.	.	8g#\	.	.	.	.
4r	.	.	8dd# 8b#X\	.	.	.	.
.	.	.	8g#\J)	.	.	.	.
4C# 4CC#/	.	.	(8eeL 8dd#\	.	.	((8ff#\L	.
.	.	.	8g#\	.	.	8ee\)	.
4r	.	.	8ee 8cc#\	.	.	(8ee\	.
.	.	.	8g#\J)	.	.	8dd#\J))	.
=209	=209	=209	=209	=209	=209	=209	=209
*	*	*	*^	*	*	*	*
4G# 4GG#/	.	.	(8dd#XL 8b#X\	2dd# 2b#\	.	.	2.dd#X\	.
.	.	.	8g#\	.	.	.	.	.
4r	.	.	8gg#\	.	.	.	.	.
.	.	.	8g#\J	.	.	.	.	.
2r	.	.	8gg#\L	2ryy	.	.	.	.
.	.	.	8g#\	.	.	.	.	.
.	.	.	8gg#\	.	.	.	4r	.
.	.	.	8g#\J)	.	.	.	.	.
*	*	*	*v	*v	*	*	*	*
=210	=210	=210	=210	=210	=210	=210	=210
*ped	*	*	*	*	*	*	*
(2G# 2GG#/	.	.	8r	.	.	4r	.
.	.	.	(8e#X\L	.	.	.	.
.	.	.	8ee#X 8ddn 8bn\	.	<	(2ee#X\	<
.	.	.	8ee#\J	.	.	.	.
*Xped	*	*	*	*	*	*	*
4Gn 4GGn/	.	.	8eee#XL 8dddn 8bbn\	.	.	.	.
.	.	.	8ee#\	.	.	.	.
4F# 4FF#/	.	.	8fff# 8ddd 8bb\	.	.	4ff#\)	[[
.	.	.	8ff#\J)	.	[[	.	.
!!LO:LB:g=original
=211	=211	=211	=211	=211	=211	=211	=211
4E#X 4EE#X/)	.	.	(8aaaL 8ddd\	.	>	(4aa\	>
.	.	.	8aa\	.	.	.	.
4r	.	.	8ggg# 8ddd\	.	.	4gg#\	.
.	.	.	8gg#\J)	.	.	.	.
2r	.	.	(8ccc#L 8gg#\	.	.	4cc#\)	]
.	.	.	8cc#\)	.	.	.	.
.	.	.	(8cc# 8g#\	.	]	4cc#`\	.
.	.	.	8d\J)	.	.	.	.
=212	=212	=212	=212	=212	=212	=212	=212
2.E 2.EE/	.	.	8r	.	.	4r	.
.	.	.	8A#X/L	.	.	.	.
.	.	.	8a#X 8gn 8c#/	.	<	(2ccc#\	.
.	.	.	8a#/J	.	.	.	.
.	.	.	8aa#XL 8ggn 8cc#\	.	.	.	.
.	.	.	8a#\	.	.	.	.
4D 4DD/	.	.	8bb 8ff#\	.	.	4ddd\)	<[
.	.	.	8b\J	.	.	.	.
=213	=213	=213	=213	=213	=213	=213	=213
2C# 2CC#/	.	.	8fff#L 8aa#X\	.	>	(4fff#\	>
.	.	.	8ggn\	.	]	.	.
.	.	.	8eee 8aa#\	.	.	4eee\	.
.	.	.	8gg\J	.	.	.	.
2E 2EE/	.	.	(8ccc#L 8ff#\	.	.	4aa#X\)	]
.	.	.	8cc#\)	.	.	.	.
.	.	.	(8ff# 8cc#\	.	.	4aa#`\	.
.	.	.	8f#\J)	.	]]	.	.
=214	=214	=214	=214	=214	=214	=214	=214
!LO:TX:b:t=legato il basso	!	!	!	!	!	!	!
1D 1DD	.	.	(8f#\L	.	<	2bb\	.
.	.	.	8b\	.	.	.	.
.	.	.	8b\	.	.	.	.
.	.	.	8bbJ 8ff#\)	.	.	.	.
.	.	.	(8B#X\L	.	.	2bb#X\	<
.	.	.	8b#X 8f#\	.	.	.	.
.	.	.	8b#\	.	.	.	.
.	.	.	8bb#XJ 8ff#\)	.	.	.	.
!!LO:LB:g=original
=215	=215	=215	=215	=215	=215	=215	=215
!	!	!	!LO:TX:b:t=sempre	!	!	!	!
2C# 2CC#/	.	.	(8c#\L	.	.	2ccc#\	.
.	.	.	8cc# 8a 8f#\	.	.	.	.
.	.	.	8cc#\	.	.	.	.
.	.	.	8ccc#J 8aa 8ff#\)	.	.	.	.
!	!	!	!	!	!	!LO:TX:b:t=sempre	!
2BB#X 2BBB#X/	.	.	(8d#X\L	.	.	2ddd#X\	.
.	.	.	8dd#X 8a 8f#\	.	.	.	.
.	.	.	8dd#\	.	.	.	.
.	.	.	8ddd#XJ 8aa 8ff#\)	.	.	.	.
=216	=216	=216	=216	=216	=216	=216	=216
2BBn 2BBBn/	.	.	(8e#X\L	.	.	2eee#X\	.
.	.	.	8ee#X 8cc# 8g#\	.	.	.	.
.	.	.	8ee#\	.	.	.	.
.	.	.	8eee#XJ 8ccc# 8gg#\)	.	.	.	.
[2AA [2AAA/	.	.	(8f#\L	.	.	[2fff#\	.
.	.	.	8ff# 8cc#\	.	.	.	.
.	.	.	8ff#\	.	.	.	.
.	.	.	8fff#J 8ccc#\	.	.	.	.
=217	=217	=217	=217	=217	=217	=217	=217
2AA] 2AAA/]	.	.	8fff#L 8ccc#\	.	.	2fff#\]	.
.	.	.	8ff#\	.	.	.	.
.	.	.	8ff# 8cc#\)	.	.	.	.
.	.	.	(8f#\J	.	.	.	.
2BB 2BBB/	.	.	8g#\L	.	.	2gg#\	.
.	.	.	8gg# 8ff# 8dd\	.	.	.	.
.	.	.	8gg#\	.	.	.	.
.	.	.	8ggg#J 8fff# 8ddd\)	.	.	.	.
=218	=218	=218	=218	=218	=218	=218	=218
*ped	*	*	*	*	*	*	*
[1C# [1CC#	.	.	(8aa\L	.	f	1aa	.
.	.	.	8aaa 8fff# 8ccc#\	.	.	.	.
.	.	.	8aaa 8fff# 8ccc#\	.	.	.	.
.	.	.	8aa\J)	.	.	.	.
.	.	.	(8cc#\L	.	.	.	.
.	.	.	8ccc# 8aa 8ff#\	.	.	.	.
.	.	.	8ccc# 8aa 8ff#\	.	.	.	.
.	.	.	8cc#\J)	.	.	.	.
*Xped	*	*	*	*	*	*	*
=219	=219	=219	=219	=219	=219	=219	=219
2C#] 2CC#/]	.	.	8a\L	.	.	1ee#X 1cc#	.
.	.	.	8aa 8ee#X 8cc#\	.	.	.	.
.	.	.	8aa 8ee# 8cc#\	.	.	.	.
.	.	.	8a\J	.	.	.	.
2CC#/	.	.	(8e#X/L	.	>	.	.
.	.	.	8ee# 8dd 8b/	.	.	.	.
.	.	.	8ee# 8cc# 8b/	.	.	.	.
.	.	.	8e#/J)	.	]]	.	.
=220	=220	=220	=220	=220	=220	=220	=220
4FF# 4FFF#/	.	.	4ff# 4a 4f#\	.	.	4ff# 4a\	.
4r	.	.	(4f#/	.	p	4r	.
4r	.	.	4ff#\	.	.	2r	.
(4F#\	.	.	8een\L	.	.	.	.
.	.	.	8dd\J	.	.	.	.
=221	=221	=221	=221	=221	=221	=221	=221
4f#\	.	.	8cc#/L	.	.	1r	.
.	.	.	8a/	.	.	.	.
8e\L	.	.	8b/	.	.	.	.
8d\J	.	.	8b#X/J	.	.	.	.
8c#\L	.	.	2cc#/	.	.	.	.
8A\	.	.	.	.	.	.	.
8Bn\	.	.	.	.	.	.	.
8B#X\J	.	.	.	.	.	.	.
!!LO:PB:g=original
=222	=222	=222	=222	=222	=222	=222	=222
[2c#\)	.	.	(8cc#/L)	.	.	2r	.
.	.	.	8bn/	.	.	.	.
.	.	.	8a/	.	.	.	.
.	.	.	8g#/J)	.	.	.	.
(8c#\L]	.	.	(8a/L	.	.	4r	.
8Bn\	.	.	8g#/	.	.	.	.
8A\	.	.	8f#/	.	.	8r	.
8G#\J)	.	.	8e#X/J)	.	.	16r	.
.	.	.	.	.	.	16ff# 16f#\	.
=223	=223	=223	=223	=223	=223	=223	=223
*	*	*	*^	*	*	*	*
!	!	!	!	!	!	!	!LO:TX:a:t=ten.	!
(8A\L	.	.	4f#/	4ryy	.	.	2ff# 2f#\	.
8G#\	.	.	.	.	.	.	.	.
8F#\	.	.	4g#/	2c#\	.	<	.	.
8E#X\J	.	.	.	.	.	.	.	.
8F#\L	.	.	4a 4f#/	.	.	.	2r	.
8En\	.	.	.	.	.	.	.	.
8D\	.	.	4a#X 4f#/	4e\	.	.	.	.
8C#\J)	.	.	.	.	.	.	.	.
*	*	*	*v	*v	*	*	*	*
=224	=224	=224	=224	=224	=224	=224	=224
4BB/	.	.	4b 4f# 4d/	.	[	1r	.
4r	.	.	(4b\	.	p	.	.
4r	.	.	4bb\	.	.	.	.
(4B\	.	.	8aa\L	.	.	.	.
.	.	.	8ggn\J	.	.	.	.
=225	=225	=225	=225	=225	=225	=225	=225
4b\	.	.	8ff#\L	.	.	1r	.
.	.	.	8dd\	.	.	.	.
8a\L	.	.	8ee\	.	.	.	.
8gn\J	.	.	8ee#X\J)	.	.	.	.
8f#\L	.	.	[2ff#\	.	.	.	.
8d\	.	.	.	.	.	.	.
8e\	.	.	.	.	.	.	.
8e#X\J	.	.	.	.	.	.	.
=226	=226	=226	=226	=226	=226	=226	=226
[2f#\)	.	.	(8ff#\L]	.	.	1r	.
.	.	.	8een\	.	.	.	.
.	.	.	8dd\	.	.	.	.
.	.	.	8cc#\J)	.	.	.	.
8f#\L]	.	.	(8dd\L	.	.	.	.
8en\	.	.	8cc#\	.	.	.	.
8d\	.	.	8b\	.	.	.	.
8c#\J	.	.	8a#X\J)	.	.	.	.
=227	=227	=227	=227	=227	=227	=227	=227
8B\L	.	.	(8b\L	.	.	1r	.
8A\	.	.	8cc#\	.	.	.	.
8G#\	.	.	8dd\	.	.	.	.
8Fn\J	.	.	8cc#\J	.	.	.	.
8E/L	.	.	8b/L	.	.	.	.
8D/	.	.	8an/	.	.	.	.
8C#X/	.	.	8g#/	.	.	.	.
8BB/J	.	.	8f#/J	.	.	.	.
!!LO:LB:g=original
=228	=228	=228	=228	=228	=228	=228	=228
*	*	*	*^	*	*	*	*
4C#/	.	.	4e#X/)	2ryy	.	.	4r	.
4r	.	.	4r	.	.	.	(4cc#\	p
[2G# 2BB\	.	.	(4dd/	2f#\	.	>	4dd\	.
.	.	.	4b/	.	.	.	8g#/L	.
.	.	.	.	.	.	.	8f#/J	.
*	*	*	*v	*v	*	*	*	*
=229	=229	=229	=229	=229	=229	=229	=229
*^	*	*	*	*	*	*	*
4G#] 4C#/	2ryy	.	.	4g# 4e#X/)	.	.	8e#X/L)	.
.	.	.	.	.	.	.	(8e#/	.
4r	.	.	.	(2cc# 2c#/	.	]	8f#/	.
.	.	.	.	.	.	.	8g#/J	.
(4F#/	2FF#\	.	.	.	.	.	4a/	.
8G#/L	.	.	.	4b#X 4d/	.	.	8g#/L	.
8A/J	.	.	.	.	.	.	8f#/J	.
*v	*v	*	*	*	*	*	*	*
=230	=230	=230	=230	=230	=230	=230	=230
*	*	*	*^	*	*	*	*
4G# 4C#\)	.	.	4cc# 4c#/)	2ryy	.	.	4e#X/)	.
4r	.	.	4r	.	.	.	(4cc#\	.
2G# 2BBn\	.	.	(4dd^/	2f#\	.	.	4dd\	.
.	.	.	4bn/	.	.	.	8g#/L	.
.	.	.	.	.	.	.	8f#/J	.
=231	=231	=231	=231	=231	=231	=231	=231	=231
2C#/	.	.	4.a 4.c#/	4r	.	>	8e#X/L)	.
.	.	.	.	.	.	.	(8e#/	.
.	.	.	.	4e#X\	.	.	8f#/	.
.	.	.	8g# 8B/	.	.	.	8g#/J	.
4FF#/	.	.	4f# 4A/)	2ryy	.	.	4a/	.
4r	.	.	4r	.	.	]	8g#/L	.
.	.	.	.	.	.	.	8f#/J)	.
=232	=232	=232	=232	=232	=232	=232	=232	=232
(1BB 1BBB	.	.	4r	4ryy	.	.	2f#/	.
.	.	.	(4f#/	2.f#\	.	<	.	.
.	.	.	4dd/	.	.	.	(4.ff#\	<
.	.	.	8cc#/L	.	.	.	.	.
.	.	.	8b/J	.	.	.	8gg#\)	.
*	*	*	*v	*v	*	*	*	*
=233	=233	=233	=233	=233	=233	=233	=233
4FF#/)	.	.	8a/L	.	[ >	2.aa\	.
.	.	.	8e#X/	.	.	.	.
4r	.	.	8f#/	.	.	.	.
.	.	.	8g#/J	.	.	.	.
2r	.	.	8a\L	.	.	.	.
.	.	.	8a\	.	.	.	.
.	.	.	8aa\	.	.	4r	[
.	.	.	8a\J)	.	]]	.	.
=234	=234	=234	=234	=234	=234	=234	=234
*	*	*	*^	*	*	*	*
(1D 1DD	.	.	4r	4ryy	.	.	(2..aa\	<
.	.	.	(4a/	2.a\	.	<	.	.
.	.	.	4ffn/	.	.	.	.	.
.	.	.	8ee/L	.	.	.	.	.
.	.	.	8dd/J	.	.	.	8bb\)	[[
*	*	*	*v	*v	*	*	*	*
!!LO:LB:g=original
=235	=235	=235	=235	=235	=235	=235	=235
4AA/)	.	.	8cc#/L	.	[	2.ccc#\	.
.	.	.	8g#/	.	.	.	.
4r	.	.	8a/	.	.	.	.
.	.	.	8b/J	.	.	.	.
2r	.	.	8cc#\L	.	>	.	.
.	.	.	8cc#\	.	.	.	.
.	.	.	8ccc#\	.	.	4r	.
.	.	.	8cc#\J)	.	]]	.	.
=236	=236	=236	=236	=236	=236	=236	=236
*	*	*	*^	*	*	*	*
2..A 2..AA\	.	.	4r	4ryy	.	.	(2.cc#\	.
.	.	.	(4c#/	[2.c#\	.	.	.	.
.	.	.	4cc#/	.	.	.	.	.
.	.	.	8b#X/L	.	.	<	8dd#X\L	.
8G# 8GG#/	.	.	8bn/J	.	.	.	8ee#X\J	.
=237	=237	=237	=237	=237	=237	=237	=237	=237
2F# 2FF#/	.	.	4a/	1c#]	.	.	2ff#\)	<
.	.	.	8b/L	.	.	.	.	.
.	.	.	8a/J	.	.	.	.	.
2E 2EE/	.	.	4g#/	.	.	.	[2gg#\	.
.	.	.	8a/L	.	.	.	.	.
.	.	.	8g#/J	.	.	.	.	.
*	*	*	*v	*v	*	*	*	*
=238	=238	=238	=238	=238	=238	=238	=238
4D 4DD/	.	.	4b 4f#/)	.	f	4gg#\]	.
4C# 4CC#/	.	.	4a 4e/	.	.	(4aa\	.
4BB 4BBB/	.	.	4g# 4d/	.	.	4bb\	.
4BB#X 4BBB#X/	.	.	4f# 4d#X/	.	.	4aa\	.
=239	=239	=239	=239	=239	=239	=239	=239
*^	*	*	*	*	*	*	*
4C#/	4CC#\	.	.	4e#X/	.	f	4gg#\)	.
4CC#\	4ryy	.	.	(4C#/	.	.	(8cc#\L	f
.	.	.	.	.	.	.	8dd#X\J	.
4C#\	2ryy	.	.	4c#/	.	.	8ee#X\L	.
.	.	.	.	.	.	.	8ff#\	.
8BB\L	.	.	.	8B/L	.	.	8gg#\	.
8AA\J	.	.	.	8A/J	.	.	8aa\J	.
*v	*v	*	*	*	*	*	*	*
=240	=240	=240	=240	=240	=240	=240	=240
8GG#\L	.	.	8G#/L	.	.	8bb\L)	.
8EE#X\	.	.	8E#X/	.	.	(8gg#\	.
8FF#\	.	.	8F#/	.	.	8aa\	.
8GG#\J	.	.	8G#/J	.	.	8bb\J	.
4AA\	.	.	4A/	.	.	2bb#X\	.
8GG#\L	.	.	8G#/L	.	.	.	.
8FF#\J	.	.	8F#/J	.	.	.	.
=241	=241	=241	=241	=241	=241	=241	=241
4EE#X\	.	.	4E#X/)	.	.	4ccc#\)	.
4CC#\	.	.	(4C#/	.	f	(8cc#\L	.
.	.	.	.	.	.	8dd#X\J	.
4C#\	.	.	4c#/	.	.	8ee#X\L	.
.	.	.	.	.	.	8ff#\	.
8BB\L	.	.	8B/L	.	.	8gg#\	.
8AA\J	.	.	8A/J	.	.	8aa\J	.
!!LO:LB:g=original
=242	=242	=242	=242	=242	=242	=242	=242
8GG#/L	.	.	8G#/L	.	.	8bb\L)	.
8EE#X/	.	.	8E#X/	.	.	(8gg#\	.
8FF#/	.	.	8F#/	.	.	8aa\	.
8GG#/J	.	.	8G#/J	.	.	8bb\J	.
4AA/	.	.	4A/	.	.	2bb#X\	.
8GG#/L	.	.	8G#/L	.	.	.	.
8FF#/J	.	.	8F#/J	.	.	.	.
=243	=243	=243	=243	=243	=243	=243	=243
*^	*	*	*^	*	*	*	*
4C# 4CC#\	2ryy	.	.	4c# 4E#X/)	2ryy	.	.	4ccc#\)	.
4r	.	.	.	(4c#/	.	.	.	4r	.
2F##X/	[2C#\	.	.	4cc#/	2en\	.	.	2r	.
.	.	.	.	8dd#X/L	.	.	.	.	.
.	.	.	.	8cc#/J	.	.	.	.	.
=244	=244	=244	=244	=244	=244	=244	=244	=244	=244
2G#/	1C#]	.	.	8b#X/L	2d#X\	.	.	1r	.
.	.	.	.	8f##X/	.	.	.	.	.
.	.	.	.	8g#/	.	.	.	.	.
.	.	.	.	8a#X/J	.	.	.	.	.
2E#X/	.	.	.	4bn/	2dn\	.	.	.	.
.	.	.	.	8cc#/L	.	.	.	.	.
.	.	.	.	8b/J	.	.	.	.	.
*v	*v	*	*	*	*	*	*	*	*
=245	=245	=245	=245	=245	=245	=245	=245	=245
2F# 2FF#/	.	.	8a#X/L	2c#\	.	.	1r	.
.	.	.	8e#X/	.	.	.	.	.
.	.	.	8f#X/	.	.	.	.	.
.	.	.	8g#/J	.	.	.	.	.
2D#X 2DD#X/	.	.	4an/	2f# 2B#X\	.	.	.	.
.	.	.	8b/L	.	.	.	.	.
.	.	.	8a/J	.	.	.	.	.
=246	=246	=246	=246	=246	=246	=246	=246	=246
2E#X 2EE#X\	.	.	4g#/	2dn 2Bn\	.	.	1r	.
.	.	.	8a/L	.	.	.	.	.
.	.	.	8g#/J	.	.	.	.	.
4F# 4FF#\	.	.	2f#/	4c# 4A\	.	.	.	.
4D 4DD\	.	.	.	4B#X 4F#\	.	.	.	.
*	*	*	*v	*v	*	*	*	*
=247	=247	=247	=247	=247	=247	=247	=247
4C# 4CC#\	.	.	8e#X 8c# 8G#/)	.	.	1r	.
!	!	!	!LO:TX:a:t=marc.	!	!	!	!
.	.	.	8e#/L	.	.	.	.
4r	.	.	8f#/	.	.	.	.
.	.	.	8f##X/J	.	.	.	.
4r	.	.	2g#/	.	.	.	.
4BB 4BBB/	.	.	.	.	.	.	.
=248	=248	=248	=248	=248	=248	=248	=248
!	!	!	!	!	!	!LO:TX:a:t=Sostenuto.	!
4C# 4CC#/	.	.	4g# 4e#X 4c# 4G#/	.	.	8r	.
.	.	.	.	.	.	(8B~/L	f
!	!	!	!LO:TX:b:t=Sosten.	!	!	!	!
4r	.	.	4r	.	.	8cn~/	.
.	.	.	.	.	.	8c#X~/J	.
2r	.	.	2r	.	.	[2d/)	.
!!LO:PB:g=original
=249	=249	=249	=249	=249	=249	=249	=249
2r	.	.	2r	.	.	1d_	.
!	!	!	!LO:TX:b:t=legato	!	!	!	!
2Cn 2CCn\	.	.	(2A 2F#/	.	p	.	.
=250	=250	=250	=250	=250	=250	=250	=250
2BB 2BBB\	.	.	2B 2Gn/	.	.	1d_	>]
2AA 2AAA\	.	.	2f# 2cn 2F#/	.	.	.	.
=251	=251	=251	=251	=251	=251	=251	=251
1GG# 1GGG#X	.	.	1f# 1B#X 1F#	.	.	4d/]	.
.	.	.	.	.	.	(4d#X/	.
.	.	.	.	.	.	4g#/	.
.	.	.	.	.	.	4f#/	.
=252	=252	=252	=252	=252	=252	=252	=252
2C# 2CC#\	.	.	2e#X 2c# 2G#/	.	.	4e#X/)	.
.	.	.	.	.	.	(2cc#\	.
2D#X 2DD#X\	.	.	2f# 2Bn 2F#/	.	.	.	.
.	.	.	.	.	.	4b\	.
=253	=253	=253	=253	=253	=253	=253	=253
.	.	.	.	.	.	(16qqa#X/LL	.
.	.	.	.	.	.	16qqb/)	.
.	.	.	.	.	.	16qqcc#/JJ	.
2C# 2EE#X\	.	.	2c# 2G#/)	.	.	1b	.
[2d#X [2D#X\	.	.	[2ff# [2b [2f#\	.	>	.	.
=254	=254	=254	=254	=254	=254	=254	=254
2d#] 2D#\]	.	.	2ff#] 2b] 2f#\]	.	.	1b	.
4d#X 4D#X\	.	.	4ee#X 4b 4f#\	.	.	.	.
4d# 4D#\	.	.	4dd#X 4b 4f#/	.	.	.	.
=255	=255	=255	=255	=255	=255	=255	=255
[1e#X [1E#X	.	.	(1dd#X [1b [1g#	.	.	1b	.
=256	=256	=256	=256	=256	=256	=256	=256
2e#] 2E#\]	.	.	2cc# 2b] 2g#/])	.	.	1b)	.
2r	.	.	2r	.	]	.	.
=257||	=257||	=257||	=257||	=257||	=257||	=257||	=257||
*k[f#c#g#d#a#]	*	*	*k[f#c#g#d#a#]	*	*	*k[f#c#g#d#a#]	*
!!LO:LB:g=original
!LO:TX:b:t=legato sempre il basso	!	!	!LO:TX:b:t=sempre	!	!	!LO:TX:b:t=cantabile	!
2F# 2FF#/	.	.	(8A#/L	.	p	1a#	.
.	.	.	8c#/	.	.	.	.
.	.	.	8f#/	.	.	.	.
.	.	.	8a#/J	.	.	.	.
2E 2EE/	.	.	8a#/L	.	.	.	.
.	.	.	8g#/	.	.	.	.
.	.	.	8c##X/	.	.	.	.
.	.	.	8A#/J)	.	.	.	.
=258	=258	=258	=258	=258	=258	=258	=258
2En 2EEn/	.	.	(8B/L	.	.	(2b\	.
.	.	.	8dn/	.	.	.	.
.	.	.	8g#/	.	.	.	.
.	.	.	8b/J)	.	.	.	.
2E#X 2EE#X/	.	.	(8B/L	.	.	2cc#\)	.
.	.	.	8c#/	.	.	.	.
.	.	.	8g#/	.	.	.	.
.	.	.	8cc#/J)	.	.	.	.
=259	=259	=259	=259	=259	=259	=259	=259
*ped	*	*	*	*	*	*	*
[1F# [1FF#	.	.	(8A#/L	.	.	(2a#/	.
.	.	.	8c#/	.	<	.	.
.	.	.	8f#/	.	.	.	.
.	.	.	8a#/J	.	.	.	.
.	.	.	8aa#\L	.	.	2cc#\	.
.	.	.	8gg#\	.	[ >	.	.
.	.	.	8ff#\	.	.	.	.
.	.	.	8ee\J	.	.	.	.
*Xped	*	*	*	*	*	*	*
=260	=260	=260	=260	=260	=260	=260	=260
2F#] 2FF#/]	.	.	8dd#\L	.	.	2ff#\)	.
.	.	.	8cc#\	.	.	.	.
.	.	.	8b\	.	.	.	.
.	.	.	8a#\J	.	.	.	.
2BB 2BBB/	.	.	8g#/L	.	.	2gg#\	.
.	.	.	8f#/	.	.	.	.
.	.	.	8e/	.	.	.	.
.	.	.	8d#/J)	.	]]	.	.
=261	=261	=261	=261	=261	=261	=261	=261
1AA# 1AAA#	.	.	8r	.	.	1aa#	.
.	.	.	(8c##X/L	.	.	.	.
.	.	.	8e#X/	.	.	.	.
.	.	.	8g#/J	.	.	.	.
.	.	.	8a#\L	.	.	.	.
.	.	.	8cc##X\	.	.	.	.
.	.	.	8ff#\	.	.	.	.
.	.	.	8ee\J)	.	.	.	.
!!LO:LB:g=original
=262	=262	=262	=262	=262	=262	=262	=262
2D# 2DD#/	.	.	(8dd#/L	.	.	(4gg#\	.
.	.	.	8a#/	.	.	.	.
.	.	.	8f#/	.	.	4ff#\	.
.	.	.	8d#/J)	.	.	.	.
2BB#X 2BBB#X/	.	.	(8g#/L	.	.	4ee\	.
.	.	.	8f#/	.	.	.	.
.	.	.	8d#/	.	.	4dd#\)	.
.	.	.	8G#/J)	.	.	.	.
=263	=263	=263	=263	=263	=263	=263	=263
1C# 1CC#	.	.	(8A#/L	.	.	(2.cc#\	.
.	.	.	8c#/	.	.	.	.
.	.	.	8f#/	.	.	.	.
.	.	.	8a#/J)	.	.	.	.
.	.	.	(8E/L	.	.	.	.
.	.	.	8B/	.	.	.	.
.	.	.	8c#/	.	.	4b\	.
.	.	.	8g#/J)	.	.	.	.
=264	=264	=264	=264	=264	=264	=264	=264
2FF#\	.	.	(8F#/L	.	.	2.a#/)	.
.	.	.	8A#/	.	.	.	.
.	.	.	8c#/	.	.	.	.
.	.	.	8f#/J	.	.	.	.
2r	.	.	8f#/L	.	.	.	.
.	.	.	8c#/	.	.	.	.
.	.	.	8A#/	.	.	4r	.
.	.	.	8F#/J)	.	.	.	.
=265	=265	=265	=265	=265	=265	=265	=265
[1AA#	.	.	(8E/L	.	p	1cc#	.
.	.	.	8A#/	.	.	.	.
.	.	.	8c#/	.	.	.	.
.	.	.	8e/J	.	.	.	.
.	.	.	8e/L	.	.	.	.
.	.	.	8c#/	.	.	.	.
.	.	.	8A#/	.	.	.	.
.	.	.	8E/J)	.	.	.	.
=266	=266	=266	=266	=266	=266	=266	=266
2AA#\]	.	.	(8F#/L	.	.	(2dd#\	.
.	.	.	8A#/	.	.	.	.
.	.	.	8d#/	.	.	.	.
.	.	.	8f#/J)	.	.	.	.
2GG##X/	.	.	(8E/L	.	.	2ee\)	.
.	.	.	8B#X/	.	.	.	.
.	.	.	8d#/	.	.	.	.
.	.	.	8e/J)	.	.	.	.
!!LO:LB:g=original
=267	=267	=267	=267	=267	=267	=267	=267
1AA#	.	.	(8E/L	.	.	(2cc#\	.
.	.	.	8A#/	.	.	.	.
.	.	.	8c#/	.	.	.	.
.	.	.	8e/J	.	.	.	.
.	.	.	8e/L	.	.	2ccc#\)	.
.	.	.	8c#/	.	.	.	.
.	.	.	8A#/	.	.	.	.
.	.	.	8E/J)	.	.	.	.
=268	=268	=268	=268	=268	=268	=268	=268
1BB#X	.	.	(8F#/L	.	.	(2bb#X\	.
.	.	.	8G#/	.	.	.	.
.	.	.	8d#/	.	.	.	.
.	.	.	8f#/J	.	.	.	.
.	.	.	8f#/L	.	.	2aa#\)	.
.	.	.	8d#/	.	.	.	.
.	.	.	8G#/	.	.	.	.
.	.	.	8F#/J)	.	.	.	.
=269	=269	=269	=269	=269	=269	=269	=269
2C#\	.	.	(8E/L	.	.	(2gg#\	.
.	.	.	8G#/	.	.	.	.
.	.	.	8c#/	.	.	.	.
.	.	.	8e/J)	.	.	.	.
2EE\	.	.	(8G##X/L	.	.	4ff#\	.
.	.	.	8c#/	.	.	.	.
.	.	.	8e/	.	.	4ee\	.
.	.	.	8g##X/J)	.	.	.	.
=270	=270	=270	=270	=270	=270	=270	=270
2FF#\	.	.	(8A#/L	.	.	6ee\	.
.	.	.	8c#/	.	.	.	.
.	.	.	.	.	.	6cc##X\	.
.	.	.	8f#/	.	.	.	.
.	.	.	.	.	.	6dd#\	.
.	.	.	8a#/J)	.	.	.	.
2GG#\	.	.	(8F#/L	.	.	6ff#\	.
.	.	.	8G#/	.	.	.	.
.	.	.	.	.	.	6ee\	.
.	.	.	8B#X/	.	.	.	.
.	.	.	.	.	.	6dd#\	.
.	.	.	8d#/J)	.	.	.	.
=271	=271	=271	=271	=271	=271	=271	=271
*ped	*	*	*	*	*	*	*
(8CC#\L	.	.	4c# 4E/	.	.	2cc#X\)	.
8GG#\	.	.	.	.	.	.	.
8C#\	.	.	4r	.	.	.	.
8E\J	.	.	.	.	.	.	.
*Xped	*	*	*	*	*	*	*
8G#\)	.	.	8r	.	<	2r	.
8r	.	.	8An/L	.	.	.	.
4r	.	.	8A#X/	.	.	.	.
.	.	.	8B#X/J	.	[[	.	.
!!LO:LB:g=original
=272	=272	=272	=272	=272	=272	=272	=272
8FF##X\L	.	.	8r	.	.	1r	.
8r	.	.	8F##X/L	.	.	.	.
8GG#\	.	.	8r	.	.	.	.
8r	.	.	8G#/	.	.	.	.
8AA#\	.	.	8r	.	.	.	.
8r	.	.	8A#/	.	.	.	.
8BB\J	.	.	8r	.	.	.	.
8r	.	.	8B/J	.	.	.	.
=273	=273	=273	=273	=273	=273	=273	=273
4r	.	.	4r	.	.	1r	.
8C#\L	.	.	8r	.	.	.	.
8r	.	.	8c#/L	.	.	.	.
8GG#\	.	.	8r	.	.	.	.
8r	.	.	8G#/	.	.	.	.
8AA#\J	.	.	8r	.	.	.	.
8r	.	.	8A#/J	.	.	.	.
=274	=274	=274	=274	=274	=274	=274	=274
8GG#\L	.	.	8r	.	.	1r	.
8r	.	.	8G#/L	.	.	.	.
8AA#\	.	.	8r	.	.	.	.
8r	.	.	8A#/	.	.	.	.
8AA#X\	.	.	8r	.	.	.	.
8r	.	.	8A#X/	.	.	.	.
8BB\J	.	.	8r	.	.	.	.
8r	.	.	8B/J	.	.	.	.
=275	=275	=275	=275	=275	=275	=275	=275
8C#\L	.	.	8r	.	.	1r	.
8r	.	.	8c#/L	.	.	.	.
8F#\	.	.	8r	.	.	.	.
8r	.	.	8f#/	.	.	.	.
8G#\	.	.	8r	.	.	.	.
8r	.	.	8g#/	.	.	.	.
8A#\J	.	.	8r	.	.	.	.
8r	.	.	8a#/J	.	.	.	.
=276	=276	=276	=276	=276	=276	=276	=276
8C#\L	.	.	8r	.	.	1r	.
8r	.	.	8c#/L	.	.	.	.
8G#\	.	.	8r	.	.	.	.
8r	.	.	8e#X/	.	.	.	.
8A#\	.	.	8r	.	.	.	.
8r	.	.	8f#/	.	.	.	.
8B\J	.	.	8r	.	.	.	.
8r	.	.	8g#/J	.	.	.	.
!!LO:LB:g=original
=277	=277	=277	=277	=277	=277	=277	=277
8A# 8F#\	.	.	8r	.	.	2r	.
8r	.	.	8f#/	.	.	.	.
8c#L 8C#\	.	.	8r	.	p	.	.
8r	.	.	8cc#/L	.	.	.	.
8E#X 8EE#X\	.	.	8r	.	.	4r	.
8r	.	.	8e#X/	.	.	.	.
8F#J 8FF#\	.	.	8r	.	.	8r	.
8r	.	.	8f#/J	.	.	8cc# 8c#/	p
=278	=278	=278	=278	=278	=278	=278	=278
!	!	!	!	!	!	!LO:TX:a:t=ten.	!
8EL 8EE#X/	.	.	8r	.	.	1cc# 1c#	.
8r	.	.	8e#X/L	.	.	.	.
8F# 8FF#/	.	.	8r	.	.	.	.
8r	.	.	8f#/	.	.	.	.
8G# 8GG#/	.	.	8r	.	.	.	.
8r	.	.	8g#/	.	.	.	.
8A#J 8AA#/	.	.	8r	.	.	.	.
8r	.	.	8a#/J	.	.	.	.
=279	=279	=279	=279	=279	=279	=279	=279
4r	.	.	4r	.	.	2r	.
8c#L 8C#\	.	.	8r	.	p	.	.
8r	.	.	8cc#/L	.	.	.	.
8F##X 8FF##X\	.	.	8r	.	.	4r	.
8r	.	.	8f##X/	.	.	.	.
8G#J 8GG#\	.	.	8r	.	.	8r	.
8r	.	.	8g#/J	.	.	8cc# 8c#/	.
=280	=280	=280	=280	=280	=280	=280	=280
!	!	!	!	!	!	!LO:TX:a:t=ten.	!
8F##XL 8FF##X\	.	.	8r	.	.	1cc# 1c#	.
8r	.	.	8f##X/L	.	.	.	.
8G# 8GG#\	.	.	8r	.	.	.	.
8r	.	.	8g#/	.	.	.	.
8A# 8AA#\	.	.	8r	.	.	.	.
8r	.	.	8a#/	.	.	.	.
8BJ 8BB\	.	.	8r	.	.	.	.
8r	.	.	8b/J	.	.	.	.
=281	=281	=281	=281	=281	=281	=281	=281
4r	.	.	4r	.	.	2r	.
8c#L 8C#\	.	.	8r	.	.	.	.
8r	.	.	8cc#/L	.	.	.	.
8G# 8GG#\	.	.	8r	.	.	4r	.
8r	.	.	8g#/	.	.	.	.
8A#J 8AA#\	.	.	8r	.	.	8r	.
8r	.	.	8a#/J	.	.	8cc#\	.
=282	=282	=282	=282	=282	=282	=282	=282
8G#L 8GG#\	.	.	8r	.	.	(2cc#\	.
8r	.	.	8g#/L	.	.	.	.
8A# 8AA#\	.	.	8r	.	.	.	.
8r	.	.	8a#/	.	.	.	.
8A#X 8AA#X\	.	.	8r	.	.	4ee\	.
8r	.	.	8a#X/	.	.	.	.
8BJ 8BB\	.	.	8r	.	.	4dd#\)	.
8r	.	.	8b/J	.	.	.	.
!!LO:LB:g=original
=283	=283	=283	=283	=283	=283	=283	=283
8c#L 8C#\	.	.	8r	.	.	(4cc#\	.
8r	.	.	8cc#/L	.	.	.	.
8f#\	.	.	8r	.	.	4ccc#\	.
8r	.	.	8ff#/	.	.	.	.
8g#\	.	.	8r	.	.	4bb\	.
8r	.	.	8gg#/	.	.	.	.
8an\J	.	.	8r	.	.	4aa#\)	.
8r	.	.	8aan/J	.	.	.	.
=284	=284	=284	=284	=284	=284	=284	=284
8c#L 8C#\	.	.	8r	.	.	(4aa#\	.
8r	.	.	8cc#/L	.	.	.	.
8e#X\	.	.	8r	.	.	4gg#\	.
8r	.	.	8ee#X/	.	.	.	.
8f#\	.	.	8r	.	.	4ff#\	.
8r	.	.	8ff#/	.	.	.	.
8g#\J	.	.	8r	.	.	4ee#X\	.
8r	.	.	8gg#/J	.	.	.	.
=285	=285	=285	=285	=285	=285	=285	=285
*ped	*	*	*	*	*	*	*
8A#XL 8AA#X\	.	.	8r	.	.	4ff#\)	.
8r	.	.	8cc#/L	.	.	.	.
*Xped	*	*	*	*	*	*	*
8en\	.	.	8r	.	.	4r	.
8r	.	.	8een/	.	mf	.	.
8f#\	.	.	8r	.	.	2ccc#\	.
8r	.	.	8ff#/	.	.	.	.
8gn\J	.	.	8r	.	.	.	.
8r	.	.	8ggn/J	.	.	.	.
=286	=286	=286	=286	=286	=286	=286	=286
*ped	*	*	*	*	*	*	*
8BL 8BB\	.	.	8r	.	.	(2ccc#^\	.
8r	.	.	8b/L	.	.	.	.
8d#\	.	.	8r	.	.	.	.
*Xped	*	*	*	*	*	*	*
8r	.	.	8dd#/	.	.	.	.
8f#\	.	.	8r	.	.	2bb\)	.
8r	.	.	8ff#/	.	.	.	.
8b\J	.	.	8r	.	.	.	.
8r	.	.	8bb/J	.	.	.	.
=287	=287	=287	=287	=287	=287	=287	=287
*ped	*	*	*	*	*	*	*
8G#L 8GG#\	.	.	8r	.	.	4r	.
8r	.	.	8b/L	.	.	.	.
8d#\	.	.	8r	.	.	4bb\	.
*Xped	*	*	*	*	*	*	*
8r	.	.	8dd#/	.	.	.	.
8e\	.	.	8r	.	.	4bb\	.
8r	.	.	8ee/	.	.	.	.
8fn\J	.	.	8r	.	.	4bb\	.
8r	.	.	8ffn/J	.	.	.	.
!!LO:LB:g=original
=288	=288	=288	=288	=288	=288	=288	=288
*ped	*	*	*	*	*	*	*
8A#L 8AA#\	.	.	8r	.	.	(2bb^\	.
8r	.	.	8a#/L	.	.	.	.
8c#\	.	.	8r	.	.	.	.
*Xped	*	*	*	*	*	*	*
8r	.	.	8cc#/	.	.	.	.
8e\	.	.	8r	.	.	2aa#\)	.
8r	.	.	8ee/	.	.	.	.
8a#\J	.	.	8r	.	.	.	.
8r	.	.	8aa#/J	.	.	.	.
=289	=289	=289	=289	=289	=289	=289	=289
*ped	*	*	*	*	*	*	*
8F#L 8FF#\	.	.	8r	.	.	2r	.
8r	.	.	8a#/L	.	.	.	.
8c#\	.	.	8r	.	.	.	.
*Xped	*	*	*	*	*	*	*
8r	.	.	8cc#/	.	.	.	.
8d#\	.	.	8r	.	.	[2aa#\	.
8r	.	.	8dd#/	.	.	.	.
8e\J	.	.	8r	.	.	.	.
8r	.	.	8ee/J	.	.	.	.
=290	=290	=290	=290	=290	=290	=290	=290
*ped	*	*	*	*	*	*	*
8G#L 8GG#\	.	.	8r	.	.	4aa#\]	.
8r	.	.	8g#\L	.	.	.	.
*Xped	*	*	*	*	*	*	*
8B\	.	.	8r	.	.	(4gg#\	.
*ped	*	*	*	*	*	*	*
8r	.	.	8b\	.	.	.	.
8c#\	.	.	8r	.	.	4ff#\	.
8r	.	.	8cc#\	.	.	.	.
8d#\J	.	.	8r	.	.	4ee#X\	.
*Xped	*	*	*	*	*	*	*
8r	.	.	8dd#\J	.	.	.	.
=291	=291	=291	=291	=291	=291	=291	=291
*ped	*	*	*	*	*	*	*
8A#L 8AA#\	.	.	8r	.	.	[2ff#\)	.
8r	.	.	8cc#L 8a#/	.	.	.	.
*Xped	*	*	*	*	*	*	*
8c#\	.	.	8r	.	.	.	.
8r	.	.	8cc# 8a#/	.	.	.	.
*ped	*	*	*	*	*	*	*
8B 8BB\	.	.	8r	.	.	(8ff#\L]	.
8r	.	.	8b 8g#/	.	.	8dd#\	.
8d#\J	.	.	8r	.	.	8b\	.
*Xped	*	*	*	*	*	*	*
8r	.	.	8bJ 8g#/	.	.	8g#\J	.
=292	=292	=292	=292	=292	=292	=292	=292
*ped	*	*	*	*	*	*	*
8c#L 8C#/	.	.	8r	.	.	2a#/)	.
8r	.	.	8a#L 8f#/	.	>	.	.
8B#X 8BB#X/	.	.	8r	.	.	.	.
*Xped	*	*	*	*	*	*	*
8r	.	.	8a# 8f#/	.	.	.	.
*ped	*	*	*	*	*	*	*
8c# 8C#/	.	.	8r	.	.	2e#X/	.
8r	.	.	8a# 8Bn/	.	.	.	.
8C#J 8CC#/	.	.	8r	.	.	.	.
*Xped	*	*	*	*	*	*	*
8r	.	.	8g#J 8B/	.	]]	.	.
!!LO:PB:g=original
=293	=293	=293	=293	=293	=293	=293	=293
8F#L 8FF#\	.	.	8f#L 8A#/	.	.	4f#/	.
8r	.	.	8r	.	.	.	.
8C# 8CC#\	.	.	8r	.	.	4r	.
8r	.	.	8cc# 8c#/	.	f	.	.
8EE#X 8EEE#X\	.	.	8r	.	.	4r	.
8r	.	.	8e 8E#X/	.	.	.	.
8FF#J 8FFF#\	.	.	8r	.	.	8r	.
8r	.	.	8f#J 8F#/	.	.	8ccc# 8cc#\	f
=294	=294	=294	=294	=294	=294	=294	=294
!	!	!	!	!	!	!LO:TX:a:t=ten.	!
8EE#XL 8EEE#X\	.	.	8r	.	.	1ccc# 1cc#	.
8r	.	.	8e#XL 8E#X/	.	.	.	.
8FF# 8FFF#\	.	.	8r	.	.	.	.
8r	.	.	8f# 8F#/	.	.	.	.
8GG# 8GGG#\	.	.	8r	.	.	.	.
8r	.	.	8g# 8G#/	.	.	.	.
8AA#J 8AAA#\	.	.	8r	.	.	.	.
8r	.	.	8a#J 8A#/	.	.	.	.
=295	=295	=295	=295	=295	=295	=295	=295
4r	.	.	4r	.	.	2r	.
8C#L 8CC#\	.	.	8r	.	.	.	.
8r	.	.	8cc#L 8c#/	.	f	.	.
8FF# 8FFF#\	.	.	8r	.	.	4r	.
8r	.	.	8f##X 8F##X/	.	.	.	.
8GG#J 8GGG#\	.	.	8r	.	.	8r	.
8r	.	.	8g#J 8G#/	.	.	8ccc# 8cc#\	f
=296	=296	=296	=296	=296	=296	=296	=296
!	!	!	!	!	!	!LO:TX:a:t=ten.	!
8FF##XL 8FFF##X\	.	.	8r	.	.	1ccc# 1cc#	.
8r	.	.	8f##XL 8F##X/	.	.	.	.
8GG# 8GGG#\	.	.	8r	.	.	.	.
8r	.	.	8g# 8G#/	.	.	.	.
8AA# 8AAA#\	.	.	8r	.	.	.	.
8r	.	.	8a# 8A#/	.	.	.	.
8BBJ 8BBB\	.	.	8r	.	.	.	.
8r	.	.	8bJ 8B/	.	.	.	.
!!LO:LB:g=original
=297	=297	=297	=297	=297	=297	=297	=297
4r	.	.	4r	.	.	2r	.
8C#L 8CC#\	.	.	8r	.	.	.	.
8r	.	.	8cc#L 8c#/	.	.	.	.
8GG# 8GGG#\	.	.	8r	.	.	4r	.
8r	.	.	8g# 8G#/	.	.	.	.
8AA#J 8AAA#\	.	.	8r	.	.	8r	.
8r	.	.	8a#J 8A#/	.	.	8ccc# 8cc#\	.
=298	=298	=298	=298	=298	=298	=298	=298
8GG#L 8GGG#\	.	.	8r	.	.	2ccc# 2cc#\	.
8r	.	.	8g#L 8G#/	.	.	.	.
8AA# 8AAA#\	.	.	8r	.	.	.	.
8r	.	.	8a# 8A#/	.	.	.	.
8AA#X 8AAA#X\	.	.	8r	.	.	(4eee\	.
8r	.	.	8a#X 8A#X/	.	.	.	.
8BBJ 8BBB\	.	.	8r	.	.	4ddd#\)	.
8r	.	.	8bJ 8B/	.	.	.	.
=299	=299	=299	=299	=299	=299	=299	=299
*ped	*	*	*	*	*	*	*
8C#L 8CC#/	.	.	8r	.	.	2ccc#\	.
8r	.	.	8cc#L 8c#\	.	.	.	.
*Xped	*	*	*	*	*	*	*
8F# 8FF#/	.	.	8r	.	.	.	.
8r	.	.	8ff# 8f#\	.	.	.	.
8G# 8GG#/	.	.	8r	.	.	(4bb\	.
8r	.	.	8gg# 8g#\	.	.	.	.
8AnJ 8AAn/	.	.	8r	.	.	4aa#\)	.
8r	.	.	8aanJ 8an\	.	.	.	.
=300	=300	=300	=300	=300	=300	=300	=300
*ped	*	*	*	*	*	*	*
8C#L 8CC#/	.	.	8r	.	.	(4aa#\	.
8r	.	.	8cc#L 8c#/	.	.	.	.
8E#X 8EE#X/	.	.	8r	.	.	4gg#\	.
*Xped	*	*	*	*	*	*	*
8r	.	.	8ee#X 8e#X/	.	.	.	.
8F# 8FF#/	.	.	8r	.	.	4ff#\	.
8r	.	.	8ff# 8f#/	.	.	.	.
8G#J 8GG#/	.	.	8r	.	.	4ee#X\	.
8r	.	.	8gg#J 8g#/	.	.	.	.
!!LO:LB:g=original
=301	=301	=301	=301	=301	=301	=301	=301
8F#L 8FF#\	.	.	8r	.	.	4ff#\)	.
8r	.	.	8ff#L 8f#\	.	.	.	.
8c# 8C#\	.	.	8r	.	.	4r	.
8r	.	.	8ccc# 8cc#\	.	.	.	.
!	!	!	!LO:TX:b:t=piu	!	!	!	!
8E#X 8EE#X\	.	.	8r	.	.	4r	.
8r	.	.	8ee#X 8e#X\	.	f	.	.
8F#J 8FF#\	.	.	8r	.	.	8r	.
8r	.	.	8ff#J 8f#\	.	.	8ccc# 8cc#\	.
=302	=302	=302	=302	=302	=302	=302	=302
!	!	!	!	!	!	!LO:TX:a:t=ten.	!
8E#XL 8EE#X/	.	.	8r	.	.	1ccc# 1cc#	.
8r	.	.	8ee#XL 8e#X\	.	.	.	.
8F# 8FF#/	.	.	8r	.	.	.	.
8r	.	.	8ff# 8f#\	.	.	.	.
8G# 8GG#/	.	.	8r	.	.	.	.
8r	.	.	8gg# 8g#\	.	.	.	.
8A#J 8AA#/	.	.	8r	.	.	.	.
8r	.	.	8aa#J 8a#\	.	.	.	.
=303	=303	=303	=303	=303	=303	=303	=303
4r	.	.	4r	.	.	2r	.
!	!	!	!LO:TX:b:t=piu	!	!	!	!
8c#L 8C#\	.	.	8r	.	.	.	.
8r	.	.	8ccc#L 8cc#\	.	f	.	.
8F##X 8FF##X\	.	.	8r	.	.	4r	.
8r	.	.	8ff##X 8f##X\	.	.	.	.
8G#J 8GG#\	.	.	8r	.	.	8r	.
8r	.	.	8gg#J 8g#\	.	.	8ccc# 8cc#\	.
=304	=304	=304	=304	=304	=304	=304	=304
!	!	!	!	!	!	!LO:TX:a:t=ten.	!
8F##XL 8FF##X\	.	.	8r	.	.	1ccc# 1cc#	.
8r	.	.	8ff##XL 8f##X\	.	.	.	.
8G# 8GG#\	.	.	8r	.	.	.	.
8r	.	.	8gg# 8g#\	.	.	.	.
8A# 8AA#\	.	.	8r	.	.	.	.
8r	.	.	8aa# 8a#\	.	.	.	.
8BJ 8BB\	.	.	8r	.	.	.	.
8r	.	.	8bbJ 8b\	.	.	.	.
=305	=305	=305	=305	=305	=305	=305	=305
4r	.	.	4r	.	.	2r	.
8c#L 8C#\	.	.	8r	.	.	.	.
8r	.	.	8ccc#L 8cc#\	.	.	.	.
8G# 8GG#\	.	.	8r	.	.	4r	.
8r	.	.	8gg# 8g#\	.	.	.	.
8A#J 8AA#\	.	.	8r	.	.	8r	.
!	!	!	!	!	!	!LO:N:vis=4	!
8r	.	.	8aa#J 8a#\	.	.	8ccc# 8cc#\	.
!!LO:LB:g=original
=306	=306	=306	=306	=306	=306	=306	=306
8G#L 8GG#\	.	.	8r	.	.	2ccc# 2cc#\	.
8r	.	.	8gg#L 8g#\	.	.	.	.
8A# 8AA#\	.	.	8r	.	.	.	.
8r	.	.	8aa# 8a#\	.	.	.	.
8A#X 8AA#X\	.	.	8r	.	.	(4eee\	.
8r	.	.	8aa#X 8a#X\	.	.	.	.
8BJ 8BB\	.	.	8r	.	.	4ddd#\)	.
8r	.	.	8bbJ 8b\	.	.	.	.
=307	=307	=307	=307	=307	=307	=307	=307
*ped	*	*	*	*	*	*	*
8c#L 8C#\	.	.	8r	.	.	2ccc#\	.
8r	.	.	8ccc#L 8cc#/	.	.	.	.
*Xped	*	*	*	*	*	*	*
8f# 8F#\	.	.	8r	.	.	.	.
8r	.	.	8fff# 8ff#/	.	.	.	.
8g# 8G#\	.	.	8r	.	.	(4bb\	.
8r	.	.	8ggg# 8gg#/	.	.	.	.
8anJ 8An\	.	.	8r	.	.	4aa#\)	.
8r	.	.	8aaa#J 8aa#/	.	.	.	.
=308	=308	=308	=308	=308	=308	=308	=308
*ped	*	*	*	*	*	*	*
8c#L 8C#\	.	.	8r	.	.	(4aa#\	.
8r	.	.	8ccc#L 8cc#/	.	.	.	.
*Xped	*	*	*	*	*	*	*
8e#X 8E#X\	.	.	8r	.	.	4gg#\	.
8r	.	.	8eee#X 8ee#X/	.	.	.	.
8f# 8F#\	.	.	8r	.	.	4ff#\	.
8r	.	.	8fff# 8ff#/	.	.	.	.
8g#J 8G#\	.	.	8r	.	.	4ee#X\	.
8r	.	.	8ggg#J 8gg#/	.	.	.	.
=309	=309	=309	=309	=309	=309	=309	=309
*ped	*	*	*	*	*	*	*
8A#XL 8AA#X\	.	.	8r	.	.	4ff#\)	.
8r	.	.	8ccc#L 8cc#/	.	.	.	.
*Xped	*	*	*	*	*	*	*
8en 8En\	.	.	8r	.	.	4r	.
8r	.	.	8eee 8ee/	.	.	.	.
8f# 8F#\	.	.	8r	.	.	2ccc#\	.
8r	.	.	8fff# 8ff#/	.	.	.	.
8gnJ 8Gn\	.	.	8r	.	.	.	.
8r	.	.	8gggnJ 8ggn/	.	.	.	.
=310	=310	=310	=310	=310	=310	=310	=310
*ped	*	*	*	*	*	*	*
8BL 8BB\	.	.	8r	.	.	(2ccc#^\	.
8r	.	.	8bbL 8b/	.	.	.	.
*Xped	*	*	*	*	*	*	*
8d# 8D#\	.	.	8r	.	.	.	.
8r	.	.	8ddd# 8dd#/	.	.	.	.
8f# 8F#\	.	.	8r	.	.	4bb\)	.
8r	.	.	8fff# 8ff#/	.	.	.	.
8bJ 8B\	.	.	8r	.	.	4r	.
8r	.	.	8bbbJ 8bb/	.	.	.	.
!!LO:PB:g=original
=311	=311	=311	=311	=311	=311	=311	=311
*ped	*	*	*	*	*	*	*
8G#L 8GG#\	.	.	8r	.	.	4r	.
8r	.	.	8bbL 8b/	.	.	.	.
*Xped	*	*	*	*	*	*	*
8d# 8D#\	.	.	8r	.	.	4bb\	.
8r	.	.	8ddd# 8dd#/	.	.	.	.
8e 8E\	.	.	8r	.	.	4bb\	.
8r	.	.	8eee 8ee/	.	.	.	.
8fnJ 8Fn\	.	.	8r	.	.	4bb\	.
8r	.	.	8fffnJ 8ffn/	.	.	.	.
=312	=312	=312	=312	=312	=312	=312	=312
*ped	*	*	*	*	*	*	*
8A#L 8AA#\	.	.	8r	.	.	(2bb^\	.
8r	.	.	8aa#L 8a#/	.	.	.	.
*Xped	*	*	*	*	*	*	*
8c# 8C#\	.	.	8r	.	.	.	.
8r	.	.	8ccc# 8cc#/	.	.	.	.
*ped	*	*	*	*	*	*	*
8e 8E\	.	.	8r	.	.	4aa#\)	.
8r	.	.	8eee 8ee/	.	.	.	.
8a#J 8A#\	.	.	8r	.	.	4r	.
8r	.	.	8aaa#J 8aa#/	.	.	.	.
*Xped	*	*	*	*	*	*	*
=313	=313	=313	=313	=313	=313	=313	=313
*ped	*	*	*	*	*	*	*
8F#L 8FF#\	.	.	8r	.	.	2r	.
8r	.	.	8aa#L 8a#/	.	.	.	.
8c# 8C#\	.	.	8r	.	.	.	.
*Xped	*	*	*	*	*	*	*
8r	.	.	8ccc# 8cc#/	.	.	.	.
8d# 8D#\	.	.	8r	.	.	[2aa#\	.
8r	.	.	8ddd# 8dd#/	.	.	.	.
8eJ 8E\	.	.	8r	.	.	.	.
8r	.	.	8eeeJ 8ee/	.	.	.	.
=314	=314	=314	=314	=314	=314	=314	=314
*ped	*	*	*	*	*	*	*
8G#L 8GG#\	.	.	8r	.	.	4aa#\]	.
8r	.	.	8gg#L 8g#\	.	.	.	.
8B 8BB\	.	.	8r	.	.	(4gg#\	.
*Xped	*	*	*	*	*	*	*
8r	.	.	8bb 8b\	.	.	.	.
8c# 8C#\	.	.	8r	.	.	4ff#\	.
8r	.	.	8ccc# 8cc#\	.	.	.	.
8d#J 8D#\	.	.	8r	.	.	4ee#X\	.
8r	.	.	8ddd#J 8dd#\	.	.	.	.
=315	=315	=315	=315	=315	=315	=315	=315
*oed	*	*	*	*	*	*	*
8A#L 8AA#\	.	.	8r	.	.	2ff#\	.
8r	.	.	8ccc#L 8aa# 8ff# 8cc#\	.	.	.	.
8c# 8C#\	.	.	8r	.	.	.	.
*Xped	*	*	*	*	*	*	*
8r	.	.	8aa# 8ff# 8cc# 8a#\	.	.	.	.
*ped	*	*	*	*	*	*	*
8B 8BB\	.	.	8r	.	.	8ff#\L)	.
8r	.	.	8gg# 8dd# 8g#\	.	.	(8dd#\	.
8d#J 8D#\	.	.	8r	.	.	8b\	.
8r	.	.	8ff#J 8b 8f#\	.	.	8g#\J	.
*Xped	*	*	*	*	*	*	*
!!LO:LB:g=original
=316	=316	=316	=316	=316	=316	=316	=316
*ped	*	*	*	*	*	*	*
8c#L 8C#/	.	.	8r	.	.	2a#/)	.
8r	.	.	8cc#L 8a# 8f#/	.	.	.	.
8B#X 8BB#X/	.	.	8r	.	.	.	.
*Xped	*	*	*	*	*	*	*
8r	.	.	8a# 8f#/	.	.	.	.
8c# 8C#/	.	.	8r	.	.	2g#/	.
*ped	*	*	*	*	*	*	*
8r	.	.	8f# 8Bn/	.	.	.	.
8C#J 8CC#/	.	.	8r	.	.	.	.
8r	.	.	8e#XJ 8B/	.	.	.	.
*Xped	*	*	*	*	*	*	*
=317	=317	=317	=317	=317	=317	=317	=317
!	!	!	!LO:TX:b:t=sempre	!	!	!	!
1F# 1FF#	.	.	1a# 1f# 1c# 1A#	.	ff	2f#/	ff
.	.	.	.	.	.	2aa#\	.
=318	=318	=318	=318	=318	=318	=318	=318
2E#X 2EE#X/	.	.	2b 2g# 2d#/	.	.	2bb\	.
2En 2EEn/	.	.	2cc# 2gn 2c#/	.	<	2ccc#\	.
=319	=319	=319	=319	=319	=319	=319	=319
1D#X 1DD#X	.	.	2a# 2f# 2B#X/	.	.	2aa#\	.
.	.	.	2cc# 2f##X 2c#/	.	.	2ccc#\	.
=320	=320	=320	=320	=320	=320	=320	=320
1Dn 1DDn	.	.	2ff# 2cc# 2f#X\	.	.	2fff#\	.
.	.	.	2gg# 2b#X 2f#\	.	[[	2ggg#\	.
=321	=321	=321	=321	=321	=321	=321	=321
*ped	*	*	*	*	*	*	*
1C# 1CC#	.	.	1aa# 1cc# 1f#	.	>	1aaa#	.
=322	=322	=322	=322	=322	=322	=322	=322
*^	*	*	*	*	*	*	*
*Xped	*	*	*	*	*	*	*	*
2c# 2A#/	(1C# 1CC#	.	.	1e#X	.	]]	1e#X	.
2Bn 2G#/	.	.	.	.	.	.	.	.
*v	*v	*	*	*	*	*	*	*
=323	=323	=323	=323	=323	=323	=323	=323
4FF# 4FFF#\)	.	.	4f# 4A# 4F#/	.	.	4f#/	.
!	!	!	!LO:TX:a:t=con fuoco	!	!	!	!
(4FF#\	.	.	(4F#/	.	<	4r	.
4F#\	.	.	4f#/	.	.	2r	.
8En\L	.	.	8en/L	.	.	.	.
8D#\J	.	.	8d#/J	.	[	.	.
=324	=324	=324	=324	=324	=324	=324	=324
8C#\L	.	.	8c#/L	.	>	2r	.
8AA#\	.	.	8A#/	.	.	.	.
8BB\	.	.	8B/	.	.	.	.
8BB#X\J	.	.	8B#X/J	.	.	.	.
4C#\)	.	.	2c#/	.	]]	4r	.
4C# 4CC#'\	.	.	.	.	.	4e#X 4B/	.
!!LO:LB:g=original
=325	=325	=325	=325	=325	=325	=325	=325
4FF# 4FFF#'\	.	.	4c#'/)	.	.	4f# 4A#/	.
(4FF#\	.	.	(4F#/	.	.	4r	.
4F#\	.	.	4f#/	.	.	2r	.
8E\L	.	.	8e/L	.	.	.	.
8D#\J	.	.	8d#/J	.	.	.	.
=326	=326	=326	=326	=326	=326	=326	=326
8C#/L	.	.	8c#/L	.	.	2r	.
8AA#/	.	.	8A#/	.	.	.	.
8BB/	.	.	8B/	.	.	.	.
8BB#X/J	.	.	8B#X/J	.	.	.	.
4C#/)	.	.	2c#/)	.	.	4r	.
4C# 4CC#/	.	.	.	.	.	4e#X 4B/	.
=327	=327	=327	=327	=327	=327	=327	=327
*ped	*	*	*	*	*	*	*
([1FF# 1CC# [1FFF#	.	.	4r	.	.	1f# 1A#	.
.	.	.	(4aa#\	.	fff	.	.
.	.	.	4aaa#\	.	.	.	.
.	.	.	8ggg#\L	.	.	.	.
.	.	.	8fff#\J	.	.	.	.
*Xped	*	*	*	*	*	*	*
=328	=328	=328	=328	=328	=328	=328	=328
*ped	*	*	*	*	*	*	*
1FF#] 1DD# 1FFF#])	.	.	8ccc#\L	.	.	1f# 1A#	.
.	.	.	8aa#\	.	.	.	.
.	.	.	8bb\	.	.	.	.
.	.	.	8bb#X\J	.	.	.	.
.	.	.	8ccc#\L	.	.	.	.
.	.	.	8aa#\	.	.	.	.
.	.	.	8gg#\	.	.	.	.
.	.	.	8ff#\J	.	.	.	.
*Xped	*	*	*	*	*	*	*
=329	=329	=329	=329	=329	=329	=329	=329
*ped	*	*	*	*	*	*	*
[1FF# [1DD# [1FFF#	.	.	8dd#\L	.	.	1f# 1A#	.
.	.	.	8a#\	.	.	.	.
.	.	.	8aa#\	.	.	.	.
.	.	.	8gg#\J	.	.	.	.
.	.	.	8ff#\L	.	.	.	.
.	.	.	8dd#\	.	.	.	.
.	.	.	8a#\	.	.	.	.
.	.	.	8g#\J	.	.	.	.
!!LO:LB:g=original
*Xped	*	*	*	*	*	*	*
=330	=330	=330	=330	=330	=330	=330	=330
*ped	*	*	*	*	*	*	*
1FF#] 1DD#] 1FFF#]	.	.	8f#/L	.	.	1f# 1A#	.
.	.	.	8d#/	.	.	.	.
.	.	.	8A#/	.	.	.	.
.	.	.	8G#/J	.	.	.	.
.	.	.	8F#/L	.	.	.	.
.	.	.	8D#/	.	.	.	.
.	.	.	8AA#/	.	.	.	.
.	.	.	8GG#/J	.	.	.	.
=331	=331	=331	=331	=331	=331	=331	=331
1CC# 1FFF#	.	.	8FF#/L	.	.	4f# 4A#/	.
.	.	.	8AA#/	.	.	.	.
.	.	.	8C#/	.	.	4r	.
.	.	.	8F#/J	.	.	.	.
.	.	.	8A#/L	.	.	2r	.
.	.	.	8F#/	.	.	.	.
.	.	.	8A#/	.	.	.	.
.	.	.	8c#/J	.	.	.	.
=332	=332	=332	=332	=332	=332	=332	=332
2A# 2C# 2FF#/	.	.	8f#\L	.	.	1r	.
.	.	.	8a#\	.	.	.	.
.	.	.	8cc#\	.	.	.	.
.	.	.	8ff#\J	.	.	.	.
*	*	*	*8va	*	*	*	*
2f# 2c# 2F#\	.	.	8aa#\L	.	.	.	.
.	.	.	8ccc#\	.	.	.	.
.	.	.	8fff#\	.	.	.	.
.	.	.	8aaa#\J	.	.	.	.
*clefG2	*	*	*	*	*	*	*
*Xped	*	*	*	*	*	*	*
=333	=333	=333	=333	=333	=333	=333	=333
4aa# 4cc# 4f#\	.	.	4ffff#\)	.	f	1r	.
*	*	*	*X8va	*	*	*	*
4r	.	.	4r	.	.	.	.
2r	.	.	2r	.	.	.	.
*clefF4	*	*	*	*	*	*	*
=334	=334	=334	=334	=334	=334	=334	=334
*ped	*	*	*	*	*	*	*
2FF# 2FFF#\	.	.	2F#/	.	fff	2f#/	.
4r	.	.	4r	.	.	4r	.
8r	.	.	8r	.	.	8r	.
8FF# 8FFF#/	.	.	8F#/	.	.	8f#/	.
=335	=335	=335	=335	=335	=335	=335	=335
[1FF# [1FFF#	.	.	[1F#	.	.	[1f#	.
=336	=336	=336	=336	=336	=336	=336	=336
1FF#] 1FFF#;]	.	.	1F#;]	.	.	1f#;]	.
*Xped	*	*	*	*	*	*	*
==	==	==	==	==	==	==	==
*-	*-	*-	*-	*-	*-	*-	*-
!!!system-decoration: [(s1)][(s2,s3)]
!!!ENC: Berenika Jozajtis
!!!END: 2022-07-24
!!!ENC: Urszula Świątek
!!!END: 2022-08-16
!!!YEC: Copyright 2022 Narodowy Instytut Fryderyka Chopina (https://polishscores.org)
!!!YEM: License CC-BY-4.0 (https://creativecommons.org/licenses/by/4.0)
